!!!!SEGMENT: pl-stab--9b--001-003_rodowski-aleksander--vespere-de-confessoribus-de-torrente.krn
!!!cenid: 18xx:3470
!!!COM: Rodowski, Aleksander
!!!COM-rismID:
!!!CDT: <1790->1810
!!!CNT: Polish
!!!OPR: Vespere de Confessoribus
!!!OTL: De torrente
!!!OMV: 003
!!!PDT:
!!!AGN: Sacred; Vespers
!!!SMS-siglum: PL-STAb
!!!SMS-shelfmark: 9b
!!!SMS-shelfwork: 001-003 M
!!!SMS-variant:
!!!SMS-altvar:
!!!NIFC-rismSourceID: 301050672
!!!NIFC-islandoraID: pl-stab:2141
!!!URL-pdf-islandora: https://repozytorium.nifc.pl/islandora/object/pl-stab%3A2141/datastream/PDF/view
!!!URL-scan: https://polish.musicsources.pl/pl/lokalizacje/galeria/rekopisy/4649 @EN{Scan on Polish Music Herritage in Open Access Website} @PL{Skany w portalu Dziedzictwo Muzyki Polskiej w otwartym dostępie}
!!!ONB-nifc: UWAGA: części Nieszporów: 1. Domine ad adjuvandum, 2. Dixit Dominus, 3. De torrente, 4. Laudate pueri, 5. Magnificat, 6. Salve Regina
!!!AIN: 1 bass 2 clars 2 cor 1 organ 1 soprn 2 violn
!!!key: C
**kern	**fba	**dynam	**kern	**dynam	**kern	**dynam	**kern	**text	**kern	**text	**text	**kern	**kern	**kern	**kern
*	*	*	*group4	*	*group4	*	*group3	*	*group3	*	*	*group2	*group2	*group1	*group1
*part9	*part9	*part9	*part8	*part8	*part7	*part7	*part6	*part6	*part5	*part5	*part5	*part4	*part3	*part2	*part1
*staff9	*	*	*staff8	*	*staff7	*	*staff6	*staff6	*staff5	*staff5	*staff5	*staff4	*staff3	*staff2	*staff1
*I"Organo	*	*	*I"Violino Secundo	*	*I"Violino Primo	*	*I"Baſso	*	*I"Canto.	*	*	*I"Corno II	*I"Corno I	*I"Clarinetto Secundo	*I"Clarinetto Primo
*I'org	*	*	*I'vl 2	*	*I'vl 1	*	*I'B	*	*I'S	*	*	*I'cor 2	*I'cor 1	*I'cl 2	*I'cl 1
*Iorgan	*	*	*Ivioln	*	*Ivioln	*	*Ibass	*	*Isoprn	*	*	*Icor	*Icor	*Iclars	*Iclars
*ICklav	*	*	*ICstr	*	*ICstr	*	*ICvox	*	*ICvox	*	*	*ICbras	*ICbras	*ICww	*ICww
*IGcont	*	*	*	*	*	*	*	*	*	*	*	*	*	*	*
*clefF4	*	*	*clefG2	*	*clefG2	*	*clefF4	*	*clefC1	*	*	*clefG2	*clefG2	*clefG2	*clefG2
*k[]	*	*	*k[]	*	*k[]	*	*k[]	*	*k[]	*	*	*k[]	*k[]	*k[]	*k[]
*C:	*	*	*C:	*	*C:	*	*C:	*	*C:	*	*	*C:	*C:	*C:	*C:
*M2/4	*	*	*M2/4	*	*M2/4	*	*M2/4	*	*M2/4	*	*	*M2/4	*M2/4	*M2/4	*M2/4
*2\right	*	*	*2\right	*	*2\right	*	*	*	*2\right	*	*	*	*	*2\right	*2\right
!	!	!	!	!	!	!	!	!	!	!	!	!LO:TX:t=P:problem=partia wymieniona na stronie tytułowej, jednak brak jej w rękopisie	!LO:TX:t=P:problem=partia wymieniona na stronie tytułowej, jednak brak jej w rękopisie	!	!
!	!	!	!	!	!LO:TX:i:t=adagio	!	!	!	!LO:TX:i:t=andante Aria Solo	!	!	!	!	!LO:TX:i:t=Adagio Dulce Solo	!LO:TX:i:t=Adagio Solo Dulce
!LO:TX:i:t=Adagio	!	!	!LO:TX:i:t=adagio	!	!	!LO:DY:b:t=p.	!	!	!	!	!	!	!	!	!
!	!	!	!	!	!	!	!	!	!	!	!	!	!	!LO:TX:i:t=2. Chryste:note=zapis ołówkiem	!
8r	.	.	16c/LL	.	16e/LL	p	8ryy	.	8r	.	.	8ryy	8ryy	16cc\LL	16ee\LL
.	.	.	16d/JJ	.	16f/JJ	.	.	.	.	.	.	.	.	16dd\JJ	16ff\JJ
=1	=1	=1	=1	=1	=1	=1	=1	=1	=1	=1	=1	=1	=1	=1	=1
!	!	!	!	!	!	!	!LO:TX:b:i:t=Detorente Tacet # V. Cito	!	!	!	!	!	!	!	!
!	!	!LO:DY:b:t=p.	!	!	!	!	!	!	!	!	!	!	!	!	!
4c\	.	p	8e/L	.	8g/L	.	2ryy	.	2r	.	.	2ryy	2ryy	8ee\L	8gg\L
.	.	.	16e/L	.	16g/L	.	.	.	.	.	.	.	.	16ee\L	16gg\L
.	.	.	16e/JJ	.	16g/JJ	.	.	.	.	.	.	.	.	16ee\JJ	16gg\JJ
4G\	.	.	16e/LL	.	16g/LL	.	.	.	.	.	.	.	.	16ee\LL	16gg\LL
.	.	.	16f/	.	16a/	.	.	.	.	.	.	.	.	16ff\	16aa\
.	.	.	16e/	.	16g/	.	.	.	.	.	.	.	.	16ee\	16gg\
.	.	.	16d/JJ	.	16f/JJ	.	.	.	.	.	.	.	.	16dd\JJ	16ff\JJ
=2	=2	=2	=2	=2	=2	=2	=2	=2	=2	=2	=2	=2	=2	=2	=2
8G#X\L	7 5	.	8d/L	.	8f/L	.	2ryy	.	2r	.	.	2ryy	2ryy	8dd\L	8ff\L
8A\J	6 4	.	8c/J	.	8e/J	.	.	.	.	.	.	.	.	8cc\J	8ee\J
4r	.	.	4r	.	32cc\LLL	.	.	.	.	.	.	.	.	8r	8r
.	.	.	.	.	32dd\	.	.	.	.	.	.	.	.	.	.
.	.	.	.	.	32ee\	.	.	.	.	.	.	.	.	.	.
.	.	.	.	.	32ff\JJJ	.	.	.	.	.	.	.	.	.	.
.	.	.	.	.	32gg\LLL	.	.	.	.	.	.	.	.	16b\LL	16dd\LL
.	.	.	.	.	32aa\	.	.	.	.	.	.	.	.	.	.
.	.	.	.	.	32bb\	.	.	.	.	.	.	.	.	16cc\JJ	16ee\JJ
.	.	.	.	.	32ccc\JJJ	.	.	.	.	.	.	.	.	.	.
=3	=3	=3	=3	=3	=3	=3	=3	=3	=3	=3	=3	=3	=3	=3	=3
2r	.	.	2r	.	8ccc\L	.	2ryy	.	2r	.	.	2ryy	2ryy	8dd\L	8ff\L
.	.	.	.	.	16bb\L	.	.	.	.	.	.	.	.	16ee\L	16gg\L
.	.	.	.	.	16aa\JJ	.	.	.	.	.	.	.	.	16ff\JJ	16aa\JJ
.	.	.	.	.	16aa\LL	.	.	.	.	.	.	.	.	16ff\LL	16aa\LL
.	.	.	.	.	16gg\	.	.	.	.	.	.	.	.	16ee\	16gg\
.	.	.	.	.	16ff\	.	.	.	.	.	.	.	.	16dd\	16ff\
.	.	.	.	.	16ee\JJ	.	.	.	.	.	.	.	.	16cc\JJ	16ee\JJ
=4	=4	=4	=4	=4	=4	=4	=4	=4	=4	=4	=4	=4	=4	=4	=4
4G\	6 4	.	8.e/L	.	8.gg\L	.	2ryy	.	2r	.	.	2ryy	2ryy	8.ee\L	8.gg\L
.	.	.	16c/Jk	.	16ee\Jk	.	.	.	.	.	.	.	.	16cc\Jk	16ee\Jk
!	!	!	!	!	!LO:TX:t=P:problem=mixed beam	!	!	!	!	!	!	!	!	!	!
4GG/	5 3	.	8B/L	.	8dd\L	.	.	.	.	.	.	.	.	8b\L	8dd\L
.	.	.	16c/L	.	16e/L	.	.	.	.	.	.	.	.	16cc\L	16ee\L
.	.	.	16d/JJ	.	16f/JJ	.	.	.	.	.	.	.	.	16dd\JJ	16ff\JJ
=5	=5	=5	=5	=5	=5	=5	=5	=5	=5	=5	=5	=5	=5	=5	=5
4c\	.	.	8e/L	.	8g/L	.	2ryy	.	2r	.	.	2ryy	2ryy	8ee\L	8gg\L
.	.	.	16e/L	.	16g/L	.	.	.	.	.	.	.	.	16ee\L	16gg\L
.	.	.	16e/JJ	.	16g/JJ	.	.	.	.	.	.	.	.	16ee\JJ	16gg\JJ
4G\	.	.	16e/LL	.	16g/LL	.	.	.	.	.	.	.	.	16ee\LL	16gg\LL
.	.	.	16f/	.	16a/	.	.	.	.	.	.	.	.	16ff\	16aa\
.	.	.	16e/	.	16g/	.	.	.	.	.	.	.	.	16ee\	16gg\
.	.	.	16d/JJ	.	16f/JJ	.	.	.	.	.	.	.	.	16dd\JJ	16ff\JJ
!	!	!	!	!	!LO:LB:g=original	!	!	!	!	!	!	!	!	!	!
=6	=6	=6	=6	=6	=6	=6	=6	=6	=6	=6	=6	=6	=6	=6	=6
8G#X\L	7 5	.	8d/L	.	8f/L	.	2ryy	.	2r	.	.	2ryy	2ryy	8dd\L	8ff\L
8A\J	6 4	.	8c/J	.	8e/J	.	.	.	.	.	.	.	.	8cc\J	8ee\J
4r	.	.	4r	.	32cc\LLL	.	.	.	.	.	.	.	.	4r	4r
.	.	.	.	.	32dd\	.	.	.	.	.	.	.	.	.	.
.	.	.	.	.	32ee\	.	.	.	.	.	.	.	.	.	.
.	.	.	.	.	32ff\JJJ	.	.	.	.	.	.	.	.	.	.
.	.	.	.	.	32gg\LLL	.	.	.	.	.	.	.	.	.	.
.	.	.	.	.	32aa\	.	.	.	.	.	.	.	.	.	.
.	.	.	.	.	32bb\	.	.	.	.	.	.	.	.	.	.
.	.	.	.	.	32ccc\JJJ	.	.	.	.	.	.	.	.	.	.
=7	=7	=7	=7	=7	=7	=7	=7	=7	=7	=7	=7	=7	=7	=7	=7
!LO:TX:t=P:problem=mixed beam	!	!	!	!	!	!	!	!	!	!	!	!	!	!	!
8F\L	.	.	16.a/LL	.	16.ccc\LL	.	2ryy	.	2r	.	.	2ryy	2ryy	16.ff\LL	16.aa\LL
.	.	.	32f/K	.	32aa\K	.	.	.	.	.	.	.	.	32dd\K	32ff\K
8F\	.	.	16.a/	.	16.ccc\	.	.	.	.	.	.	.	.	16.ff\	16.aa\
.	.	.	32f/JJk	.	32aa\JJk	.	.	.	.	.	.	.	.	32dd\JJk	32ff\JJk
8G\	.	.	16e/LL	.	16gg\LL	.	.	.	.	.	.	.	.	16ee\LL	16gg\LL
.	.	.	16a/	.	16ff\	.	.	.	.	.	.	.	.	16a\	16ff\
8GG/J	.	.	16g/	.	16ee\	.	.	.	.	.	.	.	.	16g\	16ee\
.	.	.	16f/JJ	.	16dd\JJ	.	.	.	.	.	.	.	.	16f\JJ	16dd\JJ
!	!	!	!	!	!	!	!	!	!	!	!	!	!	!LO:LB:g=original	!
=8	=8	=8	=8	=8	=8	=8	=8	=8	=8	=8	=8	=8	=8	=8	=8
8C/L	.	.	8eL 8G/	.	8cc/L	.	2ryy	.	4r	.	.	2ryy	2ryy	8.e/L	8cc\L
8C/	.	.	16.eL 16.G/	.	16.ccL 16.e/	.	.	.	.	.	.	.	.	.	16.cc\L
.	.	.	.	.	.	.	.	.	.	.	.	.	.	32e/LL	.
.	.	.	32eJJk 32G/	.	32ccJJk 32e/	.	.	.	.	.	.	.	.	32e/JJJ	32cc\JJk
8C/J	.	.	8e 8G/	.	8cc 8e 8G/	.	.	.	8r	.	.	.	.	8e/	8cc\
!	!	!	!	!	!	!	!	!	!LO:TX:t=P:problem=tekst mszalny "Christe" wpisany ołówkiem	!	!	!	!	!	!
8r	.	.	8r	.	16cc\LL	.	.	.	16.ee\	De	Chri-	.	.	8r	8r
.	.	.	.	.	16dd\JJ	.	.	.	.	.	.	.	.	.	.
.	.	.	.	.	.	.	.	.	32ff\	tor-	.	.	.	.	.
!	!	!	!LO:LB:g=original	!	!	!	!	!	!	!	!	!	!	!	!LO:LB:g=original
=9	=9	=9	=9	=9	=9	=9	=9	=9	=9	=9	=9	=9	=9	=9	=9
!	!	!	!	!	!	!LO:DY:b:t=pp.	!	!	!	!	!	!	!	!	!
4c\	.	.	8g/L	.	8ee\L	pp	2ryy	.	8gg\	-ren-	-ste	2ryy	2ryy	2r	2r
.	.	.	16g/L	.	16ee\L	.	.	.	16gg\	-te	.	.	.	.	.
.	.	.	16g/JJ	.	16ee\JJ	.	.	.	16gg\	in	e-	.	.	.	.
4G\	.	.	16g/LL	.	(16ee\LL	.	.	.	(16gg\LL	vi-	.	.	.	.	.
.	.	.	16a/	.	16ff\)	.	.	.	16aa\	.	.	.	.	.	.
.	.	.	16g/	.	(16ee\	.	.	.	16gg\)	.	.	.	.	.	.
.	.	.	16f/JJ	.	16dd\JJ)	.	.	.	16ff|\JJ	-a	.	.	.	.	.
=10	=10	=10	=10	=10	=10	=10	=10	=10	=10	=10	=10	=10	=10	=10	=10
8G#X\L	7 5	.	8f/L	.	8dd\L	.	2ryy	.	8ff\	bi-	-lei-	2ryy	2ryy	2r	2r
8A\J	6 4	.	8e/J	.	8cc\J	.	.	.	8ee\	-bet	-son	.	.	.	.
4r	.	.	4r	.	32cc\LLL	.	.	.	8r	.	.	.	.	.	.
.	.	.	.	.	32dd\	.	.	.	.	.	.	.	.	.	.
.	.	.	.	.	32ee\	.	.	.	.	.	.	.	.	.	.
.	.	.	.	.	32ff\JJJ	.	.	.	.	.	.	.	.	.	.
.	.	.	.	.	32gg\LLL	.	.	.	16dd\	de	Chri-	.	.	.	.
.	.	.	.	.	32aa\	.	.	.	.	.	.	.	.	.	.
.	.	.	.	.	32bb\	.	.	.	16ee\	tor-	.	.	.	.	.
.	.	.	.	.	32ccc\JJJ	.	.	.	.	.	.	.	.	.	.
=11	=11	=11	=11	=11	=11	=11	=11	=11	=11	=11	=11	=11	=11	=11	=11
4F\	.	.	8d/L	.	8ccc\L	.	2ryy	.	8ff\	-ren-	-ste	2ryy	2ryy	2r	2r
.	.	.	16e/L	.	16bb\L	.	.	.	16gg\	-te	.	.	.	.	.
.	.	.	16f/JJ	.	16aa\JJ	.	.	.	16aa\	in	.	.	.	.	.
8r	.	.	16f/LL	.	16aa\LL	.	.	.	16aa\LL	vi-	e-	.	.	.	.
.	.	.	16e/	.	16gg\	.	.	.	16gg\JJ	.	.	.	.	.	.
16r	.	.	16d/	.	16ff\	.	.	.	16ff\LL	-a	.	.	.	.	.
16F#X\	.	.	16c/JJ	.	16ee\JJ	.	.	.	16ee\JJ	.	.	.	.	.	.
=12	=12	=12	=12	=12	=12	=12	=12	=12	=12	=12	=12	=12	=12	=12	=12
!LO:TX:t=P:problem=mixed beam	!	!	!	!	!	!	!	!	!	!	!	!	!	!	!
8G\L	.	.	8.g/L	.	8.ee\L	.	2ryy	.	8.gg\L	bi-	-lei-	2ryy	2ryy	2r	2r
8GG/	.	.	.	.	.	.	.	.	.	.	.	.	.	.	.
.	.	.	16e/Jk	.	16cc\Jk	.	.	.	16ee\Jk	.	.	.	.	.	.
!	!	!	!	!	!	!	!	!	!LO:LB:g=original	!	!	!	!	!	!
8G\J	.	.	8d/L	.	8b\L	.	.	.	8dd\	-bet	.	.	.	.	.
8r	.	.	16e/L	.	16cc\L	.	.	.	16ee\LL	in	-son	.	.	.	.
.	.	.	16f/JJ	.	16dd\JJ	.	.	.	16ff\JJ	.	.	.	.	.	.
!LO:LB:g=original	!	!	!	!	!LO:LB:g=original	!	!	!	!	!	!	!	!	!	!
=13	=13	=13	=13	=13	=13	=13	=13	=13	=13	=13	=13	=13	=13	=13	=13
4c\	.	.	8g/L	.	8ee\L	.	2ryy	.	8gg\	vi-	e-	2ryy	2ryy	2r	2r
.	.	.	16g/L	.	16ee\L	.	.	.	16gg\	-a	.	.	.	.	.
.	.	.	16g/JJ	.	16ee\JJ	.	.	.	16gg\	in	-e-	.	.	.	.
4G\	.	.	16g/LL	.	16ee\LL	.	.	.	(16gg\LL	vi-	-lei-	.	.	.	.
.	.	.	16a/	.	16ff\	.	.	.	16aa\	.	.	.	.	.	.
.	.	.	16g/	.	16ee\	.	.	.	16.gg\)	.	.	.	.	.	.
.	.	.	16f/JJ	.	16dd\JJ	.	.	.	.	.	.	.	.	.	.
.	.	.	.	.	.	.	.	.	32ff|\JJk	-a	.	.	.	.	.
=14	=14	=14	=14	=14	=14	=14	=14	=14	=14	=14	=14	=14	=14	=14	=14
8G#X\L	7 5	.	8f/L	.	8dd\L	.	2ryy	.	8ff\	bi-	.	2ryy	2ryy	2r	2r
8A\J	6 4	.	8e/J	.	8cc\J	.	.	.	8ee\	-bet	-son	.	.	.	.
8r	.	.	4r	.	32ccc\LLL	.	.	.	8r	.	.	.	.	.	.
.	.	.	.	.	32bb\	.	.	.	.	.	.	.	.	.	.
.	.	.	.	.	32aa\	.	.	.	.	.	.	.	.	.	.
.	.	.	.	.	32gg\JJJ	.	.	.	.	.	.	.	.	.	.
8E\	.	.	.	.	32ff\LLL	.	.	.	16ee\	de	e-	.	.	.	.
.	.	.	.	.	32ee\	.	.	.	.	.	.	.	.	.	.
.	.	.	.	.	32dd\	.	.	.	16gg\	tor-	.	.	.	.	.
.	.	.	.	.	32cc\JJJ	.	.	.	.	.	.	.	.	.	.
=15	=15	=15	=15	=15	=15	=15	=15	=15	=15	=15	=15	=15	=15	=15	=15
4F\	.	.	16f/LL	.	16a\LL	.	2ryy	.	16gg\LL	-ren-	-e-	2ryy	2ryy	2r	2r
.	.	.	16d/	.	16b\	.	.	.	16ff\JJ	.	.	.	.	.	.
.	.	.	16a/	.	16cc\	.	.	.	16ee\	-te	.	.	.	.	.
.	.	.	16f/JJ	.	16dd\JJ	.	.	.	16dd\	in	-lei-	.	.	.	.
!LO:TX:t=P:problem=mixed beam	!	!	!	!	!	!	!	!	!	!	!	!	!	!	!
8G\L	.	.	8cc\L	.	8ee\L	.	.	.	8cc\	vi-	.	.	.	.	.
8GG/J	.	.	8b\J	.	8dd\J	.	.	.	8b\	-a	.	.	.	.	.
=16	=16	=16	=16	=16	=16	=16	=16	=16	=16	=16	=16	=16	=16	=16	=16
8C/L	.	.	8dd\L	.	8ff\L	.	2ryy	.	8dd\	bi-	.	2ryy	2ryy	4r	4r
8CC/J	.	.	8cc\J	.	8ee\J	.	.	.	8cc\	-bet	-son	.	.	.	.
4r	.	.	4r	.	4r	.	.	.	4r	.	.	.	.	16b\LL	16dd\LL
.	.	.	.	.	.	.	.	.	.	.	.	.	.	16b\	16dd#X\
.	.	.	.	.	.	.	.	.	.	.	.	.	.	16cc\	16ee\
.	.	.	.	.	.	.	.	.	.	.	.	.	.	16cc#X\JJ	16ee\JJ
=17	=17	=17	=17	=17	=17	=17	=17	=17	=17	=17	=17	=17	=17	=17	=17
!LO:TX:t=P:problem=mixed beam	!	!	!	!	!	!	!	!	!	!	!	!	!	!	!
8G\L	.	.	32g/LLL	.	32g/LLL	.	2ryy	.	2r	.	.	2ryy	2ryy	8.dd|\L	8.ff|\L
.	.	.	32G/	.	32G/	.	.	.	.	.	.	.	.	.	.
.	.	.	32B/	.	32B/	.	.	.	.	.	.	.	.	.	.
.	.	.	32d/JJJ	.	32d/JJJ	.	.	.	.	.	.	.	.	.	.
8GG/J	.	.	16g/	.	16g/	.	.	.	.	.	.	.	.	.	.
.	.	.	16r	.	16r	.	.	.	.	.	.	.	.	16ccn\Jk	16ee\Jk
4r	.	.	4r	.	4r	.	.	.	.	.	.	.	.	16b\LL	16ddn\LL
.	.	.	.	.	.	.	.	.	.	.	.	.	.	16cc\	16ee\
.	.	.	.	.	.	.	.	.	.	.	.	.	.	16dd\	16ff\
.	.	.	.	.	.	.	.	.	.	.	.	.	.	16dd#X\JJ	16ff#X\JJ
=18	=18	=18	=18	=18	=18	=18	=18	=18	=18	=18	=18	=18	=18	=18	=18
!LO:TX:t=P:problem=mixed beam	!	!	!LO:TX:t=P:problem=mixed beam	!	!LO:TX:t=P:problem=mixed beam	!	!	!	!	!	!	!	!	!	!
8c\L	.	.	32cc\LLL	.	32cc\LLL	.	2ryy	.	2r	.	.	2ryy	2ryy	8.ee|\L	8.gg'\L
.	.	.	32c/	.	32c/	.	.	.	.	.	.	.	.	.	.
.	.	.	32e/	.	32e/	.	.	.	.	.	.	.	.	.	.
.	.	.	32g/JJJ	.	32g/JJJ	.	.	.	.	.	.	.	.	.	.
8C/J	.	.	16cc\	.	16cc\	.	.	.	.	.	.	.	.	.	.
.	.	.	16r	.	16r	.	.	.	.	.	.	.	.	16ddn\Jk	16ffn\Jk
8r	.	.	4r	.	4r	.	.	.	.	.	.	.	.	16cc\LL	16ee\LL
.	.	.	.	.	.	.	.	.	.	.	.	.	.	16dd\	16ff\
16r	.	.	.	.	.	.	.	.	.	.	.	.	.	16ee\	16gg\
16E\	.	.	.	.	.	.	.	.	.	.	.	.	.	16ee\JJ	16gg#X\JJ
!	!	!	!LO:LB:g=original	!	!	!	!	!	!	!	!	!	!	!	!
=19	=19	=19	=19	=19	=19	=19	=19	=19	=19	=19	=19	=19	=19	=19	=19
4F\	.	.	16a/LL	.	16cc/LL	.	2ryy	.	2r	.	.	2ryy	2ryy	16ff\LL	16aa\LL
.	.	.	16f/	.	16a/	.	.	.	.	.	.	.	.	16a\	16ff\
.	.	.	16e/	.	16g/	.	.	.	.	.	.	.	.	16g\	16ee\
.	.	.	16d/JJ	.	16f/JJ	.	.	.	.	.	.	.	.	16f\JJ	16dd\JJ
!LO:TX:t=P:problem=mixed beam	!	!	!	!	!	!	!	!	!	!	!	!	!	!	!
8G\L	.	.	8c/L	.	8e/L	.	.	.	.	.	.	.	.	8e/L	8cc\L
8GG/J	.	.	8B/J	.	8d/J	.	.	.	.	.	.	.	.	8d/J	8b\J
=20	=20	=20	=20	=20	=20	=20	=20	=20	=20	=20	=20	=20	=20	=20	=20
!LO:TX:t=P:problem=mixed beam	!	!	!	!	!	!	!	!	!	!	!	!	!	!	!
8C/L	.	.	8d/L	.	8f/L	.	2ryy	.	2r	.	.	2ryy	2ryy	8f/L	8dd\L
8CC/J	.	.	8c/J	.	8e/J	.	.	.	.	.	.	.	.	8e/J	8cc\J
4r	.	.	4r	.	4r	.	.	.	.	.	.	.	.	16b\LL	16dd\LL
.	.	.	.	.	.	.	.	.	.	.	.	.	.	16b\	16dd#X\
.	.	.	.	.	.	.	.	.	.	.	.	.	.	16cc\	16ee\
.	.	.	.	.	.	.	.	.	.	.	.	.	.	16cc#X\JJ	16ee\JJ
!	!	!	!	!	!LO:LB:g=original	!	!	!	!	!	!	!	!	!	!
=21	=21	=21	=21	=21	=21	=21	=21	=21	=21	=21	=21	=21	=21	=21	=21
!LO:TX:t=P:problem=mixed beam	!	!	!	!	!	!	!	!	!	!	!	!	!	!	!
8G\L	.	.	32g/LLL	.	32g/LLL	.	2ryy	.	2r	.	.	2ryy	2ryy	8.dd|\L	8.ff|\L
.	.	.	32G/	.	32G/	.	.	.	.	.	.	.	.	.	.
.	.	.	32B/	.	32B/	.	.	.	.	.	.	.	.	.	.
.	.	.	32d/JJJ	.	32d/JJJ	.	.	.	.	.	.	.	.	.	.
8GG/J	.	.	16g/	.	16g/	.	.	.	.	.	.	.	.	.	.
.	.	.	16r	.	16r	.	.	.	.	.	.	.	.	16ccn\Jk	16ee\Jk
4r	.	.	4r	.	4r	.	.	.	.	.	.	.	.	16b\LL	16ddn\LL
.	.	.	.	.	.	.	.	.	.	.	.	.	.	16cc\	16ee\
.	.	.	.	.	.	.	.	.	.	.	.	.	.	16dd\	16ff\
.	.	.	.	.	.	.	.	.	.	.	.	.	.	16dd#X\JJ	16ff#X\JJ
=22	=22	=22	=22	=22	=22	=22	=22	=22	=22	=22	=22	=22	=22	=22	=22
!LO:TX:t=P:problem=mixed beam	!	!	!LO:TX:t=P:problem=mixed beam	!	!LO:TX:t=P:problem=mixed beam	!	!	!	!	!	!	!	!	!	!
8c\L	.	.	32cc\LLL	.	32cc\LLL	.	2ryy	.	2r	.	.	2ryy	2ryy	8.ee|\L	8.gg|\L
.	.	.	32c/	.	32c/	.	.	.	.	.	.	.	.	.	.
.	.	.	32e/	.	32e/	.	.	.	.	.	.	.	.	.	.
.	.	.	32g/JJJ	.	32g/JJJ	.	.	.	.	.	.	.	.	.	.
8C/J	.	.	16cc\	.	16cc\	.	.	.	.	.	.	.	.	.	.
.	.	.	16r	.	16r	.	.	.	.	.	.	.	.	16ddn\Jk	16ffn\Jk
8r	.	.	4r	.	4r	.	.	.	.	.	.	.	.	16cc\LL	16ee\LL
.	.	.	.	.	.	.	.	.	.	.	.	.	.	16dd\	16ff\
16r	.	.	.	.	.	.	.	.	.	.	.	.	.	16ee\	16gg\
16E\	.	.	.	.	.	.	.	.	.	.	.	.	.	16ee\JJ	16gg#X\JJ
!	!	!	!	!	!	!	!	!	!	!	!	!	!	!LO:LB:g=original	!
=23	=23	=23	=23	=23	=23	=23	=23	=23	=23	=23	=23	=23	=23	=23	=23
!LO:TX:t=P:problem=mixed beam	!	!	!	!	!	!	!	!	!	!	!	!	!	!	!
8F\L	.	.	16f/LL	.	16a/LL	.	2ryy	.	2r	.	.	2ryy	2ryy	16ff\LL	16aa\LL
.	.	.	16g/	.	16b/	.	.	.	.	.	.	.	.	16gg\	16bb\
8F\	.	.	16.a/	.	16.cc/	.	.	.	.	.	.	.	.	16.aa\	16.ccc\
.	.	.	32f/JJk	.	32a/JJk	.	.	.	.	.	.	.	.	32ff\JJk	32aa\JJk
8G\	.	.	16e/LL	.	16g/LL	.	.	.	.	.	.	.	.	16ee\LL	16gg\LL
.	.	.	16d/	.	16f/	.	.	.	.	.	.	.	.	16a\	16ff\
8GG/J	.	.	16c/	.	16e/	.	.	.	.	.	.	.	.	16g\	16ee\
.	.	.	16B/JJ	.	16d/JJ	.	.	.	.	.	.	.	.	16f\JJ	16dd\JJ
!	!	!	!	!	!	!	!	!	!	!	!	!	!	!	!LO:LB:g=original
=24	=24	=24	=24	=24	=24	=24	=24	=24	=24	=24	=24	=24	=24	=24	=24
8C/L	.	.	8c/L	.	8c/L	.	2ryy	.	4r	.	.	2ryy	2ryy	8e/L	8cc\L
8CC/	.	.	16.ccL 16.e 16.G/	.	16.ccL 16.e 16.G/	.	.	.	.	.	.	.	.	16.e/L	16.cc\L
.	.	.	32ccJJk 32e 32G/	.	32ccJJk 32e 32G/	.	.	.	.	.	.	.	.	32e/JJk	32cc\JJk
8CC/J	.	.	8cc 8e 8G/	.	8cc 8e 8G/	.	.	.	8r	.	.	.	.	8e/	8cc\
8r	.	.	8r	.	8r	.	.	.	16.ee\	De	Chri-	.	.	8r	8r
.	.	.	.	.	.	.	.	.	32ff\	tor-	.	.	.	.	.
!	!	!	!	!	!	!	!	!	!LO:LB:g=original	!	!	!	!	!	!
=25	=25	=25	=25	=25	=25	=25	=25	=25	=25	=25	=25	=25	=25	=25	=25
!	!	!	!	!	!	!LO:DY:b:t=p.	!	!	!	!	!	!	!	!	!
8c\	.	.	16r	.	16r	p	2ryy	.	8gg\	-ren-	-ste	2ryy	2ryy	2r	2r
.	.	.	16cc\LL	.	16ee\LL	.	.	.	.	.	.	.	.	.	.
8r	.	.	16g\	.	16cc\	.	.	.	8gg\	-te	e	.	.	.	.
.	.	.	16e\JJ	.	16g\JJ	.	.	.	.	.	.	.	.	.	.
8C/	.	.	16r	.	16r	.	.	.	8r	.	.	.	.	.	.
.	.	.	16g/LL	.	16cc\LL	.	.	.	.	.	.	.	.	.	.
8r	.	.	16e/	.	16g\	.	.	.	16.ee\	de	e-	.	.	.	.
.	.	.	16c/JJ	.	16e\JJ	.	.	.	.	.	.	.	.	.	.
.	.	.	.	.	.	.	.	.	32ff#X\	tor-	.	.	.	.	.
!LO:LB:g=original	!	!	!	!	!	!	!	!	!	!	!	!	!	!	!
=26	=26	=26	=26	=26	=26	=26	=26	=26	=26	=26	=26	=26	=26	=26	=26
8B\	6 3	.	16r	.	16r	.	2ryy	.	8gg\	-ren-	-lei-	2ryy	2ryy	2r	2r
.	.	.	16b/LL	.	16dd\LL	.	.	.	.	.	.	.	.	.	.
8r	.	.	16g/	.	16b\	.	.	.	8gg\	-te	-son	.	.	.	.
.	.	.	16d/JJ	.	16g\JJ	.	.	.	.	.	.	.	.	.	.
8BB/	.	.	16r	.	16r	.	.	.	8r	.	.	.	.	.	.
.	.	.	16d/LL	.	16g/LL	.	.	.	.	.	.	.	.	.	.
8r	.	.	16B/	.	16d/	.	.	.	16.gg\	de	e-	.	.	.	.
.	.	.	16G/JJ	.	16B/JJ	.	.	.	.	.	.	.	.	.	.
.	.	.	.	.	.	.	.	.	32bb\	tor-	.	.	.	.	.
=27	=27	=27	=27	=27	=27	=27	=27	=27	=27	=27	=27	=27	=27	=27	=27
8A\	6\	.	16r	.	16r	.	2ryy	.	8.aa\L	-ren-	-e-	2ryy	2ryy	2r	2r
.	.	.	16a/LL	.	16cc\LL	.	.	.	.	.	.	.	.	.	.
8r	.	.	16f#X/	.	16a\	.	.	.	.	.	.	.	.	.	.
.	.	.	16e/JJ	.	16g\JJ	.	.	.	16gg\Jk	.	.	.	.	.	.
!	!	!	!LO:LB:g=original	!	!	!	!	!	!	!	!	!	!	!	!
8D/	7	.	16d/LL	.	16f#X/LL	.	.	.	16ff#X\	-te	.	.	.	.	.
.	.	.	16c/	.	16e/	.	.	.	16ee\	in	.	.	.	.	.
8r	.	.	16B/	.	16d/	.	.	.	16dd\	vi-	.	.	.	.	.
.	.	.	16A/JJ	.	16c/JJ	.	.	.	16cc\	-a	.	.	.	.	.
=28	=28	=28	=28	=28	=28	=28	=28	=28	=28	=28	=28	=28	=28	=28	=28
!LO:TX:t=P:problem=mixed beam	!	!	!	!	!	!	!	!	!	!	!	!	!	!	!
8G\L	.	.	8A/L	.	8c/L	.	2ryy	.	8cc\	bi-	-lei-	2ryy	2ryy	2r	2r
8GG/	.	.	8G/J	.	8B/J	.	.	.	8b\	-bet	-son	.	.	.	.
8G\J	.	.	16G/LL	.	16B/LL	.	.	.	8r	.	.	.	.	.	.
.	.	.	16B/	.	16d/	.	.	.	.	.	.	.	.	.	.
8r	.	.	16d/	.	16g/	.	.	.	16gg\LL	pro-	e-	.	.	.	.
.	.	.	16B/JJ	.	16dd/JJ	.	.	.	16ff#X\JJ	.	.	.	.	.	.
!	!	!	!	!	!LO:LB:g=original	!	!	!	!	!	!	!	!	!	!
=29	=29	=29	=29	=29	=29	=29	=29	=29	=29	=29	=29	=29	=29	=29	=29
8C/	6 3	.	16r	.	16cc/LL	.	2ryy	.	8ee\	-pte-	-lei-	2ryy	2ryy	2r	2r
.	.	.	16e/LL	.	16a/	.	.	.	.	.	.	.	.	.	.
8r	.	.	16e/	.	16a/	.	.	.	16ee\	-re-	.	.	.	.	.
.	.	.	16e/JJ	.	16a/JJ	.	.	.	16ee\	-a	.	.	.	.	.
8C/	.	.	16r	.	16r	.	.	.	8ee\	e-	.	.	.	.	.
.	.	.	16e/LL	.	16a/LL	.	.	.	.	.	.	.	.	.	.
8r	.	.	16e/	.	16a/	.	.	.	8ee\	-xal-	.	.	.	.	.
.	.	.	16e/JJ	.	16a/JJ	.	.	.	.	.	.	.	.	.	.
=30	=30	=30	=30	=30	=30	=30	=30	=30	=30	=30	=30	=30	=30	=30	=30
8C/	.	.	16r	.	16r	.	2ryy	.	8ee\L	-ta-	.	2ryy	2ryy	2r	2r
.	.	.	16e/LL	.	16a/LL	.	.	.	.	.	.	.	.	.	.
8r	.	.	16e/	.	16a/	.	.	.	(8.ccc\J	.	.	.	.	.	.
.	.	.	16e/JJ	.	16a/JJ	.	.	.	.	.	.	.	.	.	.
16r	.	.	16r	.	16r	.	.	.	.	.	.	.	.	.	.
16C/	.	.	16e/	.	16a/	.	.	.	16bb\LL	.	.	.	.	.	.
16r	.	.	16r	.	16r	.	.	.	16aa\)	.	.	.	.	.	.
16C#X/	5 3	.	16e/	.	16g/	.	.	.	16gg|\JJ	-bit	.	.	.	.	.
!	!	!	!	!	!	!	!	!	!LO:LB:g=original	!	!	!	!	!	!
=31	=31	=31	=31	=31	=31	=31	=31	=31	=31	=31	=31	=31	=31	=31	=31
!LO:TX:t=P:problem=mixed beam	!	!	!	!	!	!	!	!	!	!	!	!	!	!	!
8D\L	#	.	32f/LLL	.	32f#X/LLL	.	2ryy	.	8gg\	Ca-	.	2ryy	2ryy	2r	2r
.	.	.	32d/	.	32d/	.	.	.	.	.	.	.	.	.	.
.	.	.	32c#X/	.	32e/	.	.	.	.	.	.	.	.	.	.
.	.	.	32d/JJJ	.	32f#/JJJ	.	.	.	.	.	.	.	.	.	.
8DD/	.	.	32e/LLL	.	32g/LLL	.	.	.	8ff#X\	-put	-son	.	.	.	.
.	.	.	32f/	.	32a/	.	.	.	.	.	.	.	.	.	.
.	.	.	32g/	.	32b/	.	.	.	.	.	.	.	.	.	.
.	.	.	32e/JJJ	.	32cc#X/JJJ	.	.	.	.	.	.	.	.	.	.
8DD/J	.	.	8f/	.	8dd\	.	.	.	4r	.	.	.	.	.	.
8r	.	.	8r	.	8r	.	.	.	.	.	.	.	.	.	.
=32	=32	=32	=32	=32	=32	=32	=32	=32	=32	=32	=32	=32	=32	=32	=32
!	!	!	!	!	!LO:TX:b:i:t=Dolce	!	!	!	!	!	!	!	!	!	!
4D\	#	.	(16c/LL	.	8.aa\L	.	2ryy	.	4r	.	.	2ryy	2ryy	2r	2r
.	.	.	16d/)	.	.	.	.	.	.	.	.	.	.	.	.
.	.	.	(16c/	.	.	.	.	.	.	.	.	.	.	.	.
.	.	.	16d/JJ)	.	32gg\LL	.	.	.	.	.	.	.	.	.	.
.	.	.	.	.	32ff#X\JJJ	.	.	.	.	.	.	.	.	.	.
4GG/	.	.	(16B/LL	.	16gg\LL	.	.	.	8r	.	.	.	.	.	.
.	.	.	16d/)	.	16dd\	.	.	.	.	.	.	.	.	.	.
.	.	.	(16B/	.	16dd\	.	.	.	16r	.	.	.	.	.	.
.	.	.	16d/JJ)	.	16dd\JJ	.	.	.	16dd\	pro-	e-	.	.	.	.
=33	=33	=33	=33	=33	=33	=33	=33	=33	=33	=33	=33	=33	=33	=33	=33
4D\	#	.	(16c/LL	.	8.dd\L	.	2ryy	.	8.aa\	-pte-	-lei-	2ryy	2ryy	2r	2r
.	.	.	16d/)	.	.	.	.	.	.	.	.	.	.	.	.
.	.	.	(16c/	.	.	.	.	.	.	.	.	.	.	.	.
.	.	.	16d/JJ)	.	32ee\LL	.	.	.	32gg\LLL	-re-	.	.	.	.	.
!	!	!	!	!	!LO:SIC:v:s=32ff#\JJJ	!	!	!	!	!	!	!	!	!	!
.	.	.	.	.	32ff\JJJ	.	.	.	32ff\JJJ	-a	.	.	.	.	.
4GG/	.	.	(16B/LL	.	16gg\LL	.	.	.	(16gg\LL	e-	.	.	.	.	.
.	.	.	16d/)	.	16aa\	.	.	.	16dd\J)	.	.	.	.	.	.
.	.	.	(16B/	.	16bb\	.	.	.	8dd\J	-xal-	-son	.	.	.	.
.	.	.	16d/JJ)	.	16gg\JJ	.	.	.	.	.	.	.	.	.	.
=34	=34	=34	=34	=34	=34	=34	=34	=34	=34	=34	=34	=34	=34	=34	=34
4D\	#	.	(16c/LL	.	8.aa\L	.	2ryy	.	8.dd\L	-ta-	e-	2ryy	2ryy	2r	2r
.	.	.	16d/)	.	.	.	.	.	.	.	.	.	.	.	.
.	.	.	(16c/	.	.	.	.	.	.	.	.	.	.	.	.
.	.	.	16d/JJ)	.	32gg\LL	.	.	.	32ee\LL	.	.	.	.	.	.
.	.	.	.	.	32ff#X\JJJ	.	.	.	32ff#X\JJJ	.	.	.	.	.	.
4GG/	.	.	(16B/LL	.	16gg\LL	.	.	.	(16gg\LL	.	.	.	.	.	.
.	.	.	16d/)	.	16dd\	.	.	.	16aa\	.	.	.	.	.	.
.	.	.	(16B/	.	16dd\	.	.	.	16bb\)	.	.	.	.	.	.
.	.	.	16d/JJ)	.	16dd\JJ	.	.	.	16gg|\JJ	-bit	.	.	.	.	.
!	!	!	!LO:LB:g=original	!	!	!	!	!	!	!	!	!	!	!	!
=35	=35	=35	=35	=35	=35	=35	=35	=35	=35	=35	=35	=35	=35	=35	=35
4D\	#	.	(16c/LL	.	8.dd\L	.	2ryy	.	(8.aa\L	Ca-	-lei-	2ryy	2ryy	2r	2r
.	.	.	16d/)	.	.	.	.	.	.	.	.	.	.	.	.
.	.	.	(16c/	.	.	.	.	.	.	.	.	.	.	.	.
.	.	.	16d/JJ)	.	32ee\LL	.	.	.	32gg\LL	.	.	.	.	.	.
!	!	!	!	!	!LO:SIC:v:s=32ff#\JJJ	!	!	!	!	!	!	!	!	!	!
.	.	.	.	.	32ff\JJJ	.	.	.	32ff\JJJ)	.	.	.	.	.	.
4GG/	.	.	(16B/LL	.	16gg\LL	.	.	.	8gg\	-put	-son	.	.	.	.
.	.	.	16d/)	.	16aa\	.	.	.	.	.	.	.	.	.	.
.	.	.	(16B/	.	16bb\	.	.	.	8r	.	.	.	.	.	.
.	.	.	16d/JJ)	.	16gg\JJ	.	.	.	.	.	.	.	.	.	.
=36	=36	=36	=36	=36	=36	=36	=36	=36	=36	=36	=36	=36	=36	=36	=36
8C/	3	.	16r	.	16r	.	2ryy	.	32ee\LLL	pro-	e-	2ryy	2ryy	2r	2r
.	.	.	.	.	.	.	.	.	32cc\J	.	.	.	.	.	.
.	.	.	16cc\LL	.	16ee\LL	.	.	.	16ccT\JJ	.	.	.	.	.	.
8r	.	.	16cc\	.	16ee\	.	.	.	32ee\LLL	.	.	.	.	.	.
.	.	.	.	.	.	.	.	.	32gg\	.	.	.	.	.	.
.	.	.	16cc\JJ	.	16ee\JJ	.	.	.	32ff#X\	.	.	.	.	.	.
.	.	.	.	.	.	.	.	.	32gg\JJJ	.	.	.	.	.	.
8D/	3	.	16r	.	16r	.	.	.	32ff#X\LLL	.	.	.	.	.	.
.	.	.	.	.	.	.	.	.	32dd\J	.	.	.	.	.	.
.	.	.	16cc\LL	.	16ff#X\LL	.	.	.	16ddT\JJ	.	.	.	.	.	.
8r	.	.	16cc\	.	16ff#\	.	.	.	32ff#\LLL	.	.	.	.	.	.
.	.	.	.	.	.	.	.	.	32aa\	.	.	.	.	.	.
.	.	.	16cc\JJ	.	16ff#\JJ	.	.	.	32gg#X\	.	.	.	.	.	.
.	.	.	.	.	.	.	.	.	32aa\JJJ	.	.	.	.	.	.
!	!	!	!	!	!LO:LB:g=original	!	!	!	!	!	!	!	!	!	!
=37	=37	=37	=37	=37	=37	=37	=37	=37	=37	=37	=37	=37	=37	=37	=37
8E\	3	.	16r	.	16r	.	2ryy	.	32gg\LLL	.	.	2ryy	2ryy	2r	2r
.	.	.	.	.	.	.	.	.	32ee\J	.	.	.	.	.	.
.	.	.	16cc\LL	.	16gg\LL	.	.	.	16eet\JJ	.	.	.	.	.	.
!	!	!	!	!	!	!	!	!	!LO:LB:g=original	!	!	!	!	!	!
8r	.	.	16cc\	.	16gg\	.	.	.	32gg\LLL	.	.	.	.	.	.
.	.	.	.	.	.	.	.	.	32bb\	.	.	.	.	.	.
.	.	.	16cc\JJ	.	16gg\JJ	.	.	.	32aa\	.	.	.	.	.	.
.	.	.	.	.	.	.	.	.	32bb\JJJ	.	.	.	.	.	.
8F#X\	3	.	16r	.	16r	.	.	.	32aa\LLL	.	.	.	.	.	.
.	.	.	.	.	.	.	.	.	32ff#X\J	.	.	.	.	.	.
.	.	.	16cc\LL	.	16aa\LL	.	.	.	16ff#t\JJ	.	.	.	.	.	.
8r	.	.	16cc\	.	16aa\	.	.	.	32aa\LLL	.	.	.	.	.	.
.	.	.	.	.	.	.	.	.	32ccc\	.	.	.	.	.	.
.	.	.	16cc\JJ	.	16aa\JJ	.	.	.	32bb\	.	.	.	.	.	.
.	.	.	.	.	.	.	.	.	32ccc\JJJ	.	.	.	.	.	.
=38	=38	=38	=38	=38	=38	=38	=38	=38	=38	=38	=38	=38	=38	=38	=38
8G\	.	.	16dd\LL	.	16bb\LL	.	2ryy	.	4bb\	.	.	2ryy	2ryy	2r	2r
.	.	.	16b\	.	16dd\	.	.	.	.	.	.	.	.	.	.
8r	.	.	16b\	.	16dd\	.	.	.	.	.	.	.	.	.	.
.	.	.	16b\JJ	.	16dd\JJ	.	.	.	.	.	.	.	.	.	.
8B\	.	.	16r	.	16r	.	.	.	16aa\LL	-pte-	.	.	.	.	.
.	.	.	16g/LL	.	16dd\LL	.	.	.	16gg\JJ	.	.	.	.	.	.
8r	.	.	16g/	.	16dd\	.	.	.	16ff#X\	-re-	.	.	.	.	.
.	.	.	16g/JJ	.	16dd\JJ	.	.	.	16gg\	-a	.	.	.	.	.
!LO:LB:g=original	!	!	!	!	!	!	!	!	!	!	!	!	!	!	!
=39	=39	=39	=39	=39	=39	=39	=39	=39	=39	=39	=39	=39	=39	=39	=39
8c\	.	.	16r	.	16r	.	2ryy	.	16ff#X\LL	e-	.	2ryy	2ryy	2r	2r
.	.	.	16g/LL	.	16ee\LL	.	.	.	16ee\JJ	.	.	.	.	.	.
8r	.	.	16g/	.	16ee\	.	.	.	8ee\	-xal-	.	.	.	.	.
.	.	.	16g/JJ	.	16ee\JJ	.	.	.	.	.	.	.	.	.	.
8c\	.	.	16r	.	16r	.	.	.	32ee\LLL	-ta-	.	.	.	.	.
.	.	.	.	.	.	.	.	.	32ff#\	.	.	.	.	.	.
.	.	.	16g/LL	.	16ee\LL	.	.	.	32gg\	.	.	.	.	.	.
.	.	.	.	.	.	.	.	.	32ff#\JJJ	.	.	.	.	.	.
8r	.	.	16g/	.	16ee\	.	.	.	32aa\LLL	.	.	.	.	.	.
.	.	.	.	.	.	.	.	.	32gg\	.	.	.	.	.	.
.	.	.	16g/JJ	.	16ee\JJ	.	.	.	32ff#\	.	.	.	.	.	.
.	.	.	.	.	.	.	.	.	32ee\JJJ	.	.	.	.	.	.
=40	=40	=40	=40	=40	=40	=40	=40	=40	=40	=40	=40	=40	=40	=40	=40
8d\	.	.	16r	.	16r	.	2ryy	.	8dd\	.	.	2ryy	2ryy	2r	2r
.	.	.	16g/LL	.	16b\LL	.	.	.	.	.	.	.	.	.	.
8r	.	.	16g/	.	16b\	.	.	.	32ff#X\LLL	.	.	.	.	.	.
.	.	.	.	.	.	.	.	.	32ee\JJJ	.	.	.	.	.	.
.	.	.	16g/JJ	.	16b\JJ	.	.	.	32dd\LLL	-bit	.	.	.	.	.
.	.	.	.	.	.	.	.	.	32cc\JJJ	.	.	.	.	.	.
8D/	.	.	16r	.	16r	.	.	.	8b\L	ca-	.	.	.	.	.
.	.	.	16aLL 16f#X/	.	16cc\LL	.	.	.	.	.	.	.	.	.	.
8r	.	.	16a 16f#/	.	16cc\	.	.	.	8aT\J	.	-lei-	.	.	.	.
.	.	.	16aJJ 16f#/	.	16cc\JJ	.	.	.	.	.	.	.	.	.	.
=41	=41	=41	=41	=41	=41	=41	=41	=41	=41	=41	=41	=41	=41	=41	=41
!LO:TX:t=P:problem=mixed beam	!	!	!	!	!	!	!	!	!	!	!	!	!	!	!
8G\L	.	.	8g/L	.	32b\LLL	.	2ryy	.	8g\	-put	-son	2ryy	2ryy	2r	2r
.	.	.	.	.	32g\	.	.	.	.	.	.	.	.	.	.
.	.	.	.	.	32a\	.	.	.	.	.	.	.	.	.	.
.	.	.	.	.	32b\JJJ	.	.	.	.	.	.	.	.	.	.
8GG/	.	.	8b 8d 8G/	.	32cc\LLL	.	.	.	8r	.	.	.	.	.	.
.	.	.	.	.	32dd\	.	.	.	.	.	.	.	.	.	.
.	.	.	.	.	32ee\	.	.	.	.	.	.	.	.	.	.
.	.	.	.	.	32ff#X\JJJ	.	.	.	.	.	.	.	.	.	.
8GG/J	.	.	8bJ 8d 8G/	.	16gg\LL	.	.	.	4r	.	.	.	.	.	.
.	.	.	.	.	16ff#\	.	.	.	.	.	.	.	.	.	.
8r	.	.	8r	.	16gg\	.	.	.	.	.	.	.	.	.	.
.	.	.	.	.	16gg#X\JJ	.	.	.	.	.	.	.	.	.	.
=42	=42	=42	=42	=42	=42	=42	=42	=42	=42	=42	=42	=42	=42	=42	=42
4D\	#	.	(16c/LL	.	8.aa\L	.	2ryy	.	4r	.	.	2ryy	2ryy	2r	2r
.	.	.	16d/)	.	.	.	.	.	.	.	.	.	.	.	.
.	.	.	(16c/	.	.	.	.	.	.	.	.	.	.	.	.
.	.	.	16d/JJ)	.	32gg\LL	.	.	.	.	.	.	.	.	.	.
!	!	!	!	!	!LO:SIC:v:s=32ff#\JJJ	!	!	!	!	!	!	!	!	!	!
.	.	.	.	.	32ff\JJJ	.	.	.	.	.	.	.	.	.	.
4GG/	.	.	(16B/LL	.	16gg\LL	.	.	.	8r	.	.	.	.	.	.
.	.	.	16d/)	.	16dd\	.	.	.	.	.	.	.	.	.	.
.	.	.	(16B/	.	16dd\	.	.	.	16r	.	.	.	.	.	.
.	.	.	16d/JJ)	.	16dd\JJ	.	.	.	16dd\	pro-	e-	.	.	.	.
!	!	!	!LO:LB:g=original	!	!	!	!	!	!LO:LB:g=original	!	!	!	!	!	!
=43	=43	=43	=43	=43	=43	=43	=43	=43	=43	=43	=43	=43	=43	=43	=43
4D\	#	.	(16c/LL	.	8.dd\L	.	2ryy	.	8aa\	-pte-	-e-	2ryy	2ryy	2r	2r
.	.	.	16d/)	.	.	.	.	.	.	.	.	.	.	.	.
.	.	.	(16c/	.	.	.	.	.	16gg|\LL	-re-	-lei-	.	.	.	.
.	.	.	16d/JJ)	.	32ee\LL	.	.	.	16ff|\JJ	-a	.	.	.	.	.
!	!	!	!	!	!LO:SIC:v:s=32ff#\JJJ	!	!	!	!	!	!	!	!	!	!
.	.	.	.	.	32ff\JJJ	.	.	.	.	.	.	.	.	.	.
4GG/	.	.	(16B/LL	.	16gg\LL	.	.	.	(16gg\LL	e-	.	.	.	.	.
.	.	.	16d/)	.	16aa\	.	.	.	16dd\J)	.	.	.	.	.	.
.	.	.	(16B/	.	16bb\	.	.	.	8dd|\J	-xal-	-son	.	.	.	.
.	.	.	16d/JJ)	.	16gg\JJ	.	.	.	.	.	.	.	.	.	.
=44	=44	=44	=44	=44	=44	=44	=44	=44	=44	=44	=44	=44	=44	=44	=44
4D\	#	.	(16c/LL	.	8.aa\L	.	2ryy	.	8.dd\L	-ta-	e-	2ryy	2ryy	2r	2r
.	.	.	16d/)	.	.	.	.	.	.	.	.	.	.	.	.
.	.	.	(16c/	.	.	.	.	.	.	.	.	.	.	.	.
.	.	.	16d/JJ)	.	32gg\LL	.	.	.	32ee\LL	.	.	.	.	.	.
!	!	!	!	!	!LO:SIC:v:s=32ff#\JJJ	!	!	!	!	!	!	!	!	!	!
.	.	.	.	.	32ff\JJJ	.	.	.	32ff#X\JJJ	.	.	.	.	.	.
!	!	!	!	!	!LO:LB:g=original	!	!	!	!	!	!	!	!	!	!
4GG/	.	.	(16B/LL	.	16gg\LL	.	.	.	16gg\LL	.	-e-	.	.	.	.
.	.	.	16d/)	.	16dd\	.	.	.	16aa\	.	.	.	.	.	.
.	.	.	(16B/	.	16dd\	.	.	.	16bb\	-bit	.	.	.	.	.
.	.	.	16d/JJ)	.	16dd\JJ	.	.	.	16gg\JJ	.	.	.	.	.	.
=45	=45	=45	=45	=45	=45	=45	=45	=45	=45	=45	=45	=45	=45	=45	=45
4D\	#	.	(16c/LL	.	8.dd\L	.	2ryy	.	8.aa\L	Ca-	-lei-	2ryy	2ryy	2r	2r
.	.	.	16d/)	.	.	.	.	.	.	.	.	.	.	.	.
.	.	.	(16c/	.	.	.	.	.	.	.	.	.	.	.	.
.	.	.	16d/JJ)	.	32ee\LL	.	.	.	32gg\LL	.	.	.	.	.	.
!	!	!	!	!	!LO:SIC:v:s=32ff#\JJJ	!	!	!	!	!	!	!	!	!	!
.	.	.	.	.	32ff\JJJ	.	.	.	32ff\JJJ	.	.	.	.	.	.
4GG/	.	.	(16B/LL	.	16gg\LL	.	.	.	8gg\	-put	-son	.	.	.	.
.	.	.	16d/)	.	16aa\	.	.	.	.	.	.	.	.	.	.
.	.	.	(16B/	.	16bb\	.	.	.	8r	.	.	.	.	.	.
.	.	.	16d/JJ)	.	16gg\JJ	.	.	.	.	.	.	.	.	.	.
=46	=46	=46	=46	=46	=46	=46	=46	=46	=46	=46	=46	=46	=46	=46	=46
8C/	3	.	16r	.	16r	.	2ryy	.	32ee\LLL	pro-	e-	2ryy	2ryy	2r	2r
.	.	.	.	.	.	.	.	.	32cc\J	.	.	.	.	.	.
.	.	.	16cc\LL	.	16ee\LL	.	.	.	16ccT\JJ	.	.	.	.	.	.
8r	.	.	16cc\	.	16ee\	.	.	.	32ee\LLL	.	.	.	.	.	.
.	.	.	.	.	.	.	.	.	32gg\	.	.	.	.	.	.
.	.	.	16cc\JJ	.	16ee\JJ	.	.	.	32ff#X\	.	.	.	.	.	.
.	.	.	.	.	.	.	.	.	32gg\JJJ	.	.	.	.	.	.
8D/	3	.	16r	.	16r	.	.	.	32ff#X\LLL	.	.	.	.	.	.
.	.	.	.	.	.	.	.	.	32dd\J	.	.	.	.	.	.
.	.	.	16cc\LL	.	16ff#X\LL	.	.	.	16ddT\JJ	.	.	.	.	.	.
8r	.	.	16cc\	.	16ff#\	.	.	.	32ff#\LLL	.	.	.	.	.	.
.	.	.	.	.	.	.	.	.	32aa\	.	.	.	.	.	.
.	.	.	16cc\JJ	.	16ff#\JJ	.	.	.	32gg#X\	.	.	.	.	.	.
.	.	.	.	.	.	.	.	.	32aa\JJJ	.	.	.	.	.	.
=47	=47	=47	=47	=47	=47	=47	=47	=47	=47	=47	=47	=47	=47	=47	=47
8E\	3	.	16r	.	16r	.	2ryy	.	32gg\LLL	.	.	2ryy	2ryy	2r	2r
.	.	.	.	.	.	.	.	.	32ee\J	.	.	.	.	.	.
.	.	.	16cc\LL	.	16gg\LL	.	.	.	16eet\JJ	.	.	.	.	.	.
8r	.	.	16cc\	.	16gg\	.	.	.	32gg\LLL	.	.	.	.	.	.
.	.	.	.	.	.	.	.	.	32bb\	.	.	.	.	.	.
.	.	.	16cc\JJ	.	16gg\JJ	.	.	.	32aa\	.	.	.	.	.	.
.	.	.	.	.	.	.	.	.	32bb\JJJ	.	.	.	.	.	.
8F#X\	3	.	16r	.	16r	.	.	.	32aa\LLL	.	.	.	.	.	.
.	.	.	.	.	.	.	.	.	32ff#X\J	.	.	.	.	.	.
.	.	.	16cc\LL	.	16aa\LL	.	.	.	16ff#t\JJ	.	.	.	.	.	.
8r	.	.	16cc\	.	16aa\	.	.	.	32aa\LLL	.	.	.	.	.	.
.	.	.	.	.	.	.	.	.	32ccc\	.	.	.	.	.	.
.	.	.	16cc\JJ	.	16aa\JJ	.	.	.	32bb\	.	.	.	.	.	.
.	.	.	.	.	.	.	.	.	32ccc\JJJ	.	.	.	.	.	.
!	!	!	!	!	!	!	!	!	!LO:LB:g=original	!	!	!	!	!	!
=48	=48	=48	=48	=48	=48	=48	=48	=48	=48	=48	=48	=48	=48	=48	=48
8G\	.	.	16dd\LL	.	16bb\LL	.	2ryy	.	4bb\	-pro-	-e-	2ryy	2ryy	2r	2r
.	.	.	16b\	.	16dd\	.	.	.	.	.	.	.	.	.	.
8r	.	.	16b\	.	16dd\	.	.	.	.	.	.	.	.	.	.
.	.	.	16b\JJ	.	16dd\JJ	.	.	.	.	.	.	.	.	.	.
8B\	.	.	16r	.	16r	.	.	.	16aa\LL	-pte-	.	.	.	.	.
.	.	.	16g/LL	.	16dd\LL	.	.	.	16gg\JJ	.	.	.	.	.	.
8r	.	.	16g/	.	16dd\	.	.	.	16ff#X\	-re-	.	.	.	.	.
.	.	.	16g/JJ	.	16dd\JJ	.	.	.	16gg\	-a	.	.	.	.	.
=49	=49	=49	=49	=49	=49	=49	=49	=49	=49	=49	=49	=49	=49	=49	=49
8c\	.	.	16r	.	16r	.	2ryy	.	16ff#X\LL	e-	-lei-	2ryy	2ryy	2r	2r
.	.	.	16g/LL	.	16ee\LL	.	.	.	16ee\JJ	.	.	.	.	.	.
8r	.	.	16g/	.	16ee\	.	.	.	8ee\	-xal-	-son	.	.	.	.
.	.	.	16g/JJ	.	16ee\JJ	.	.	.	.	.	.	.	.	.	.
8c\	.	.	16r	.	16r	.	.	.	32ee\LLL	-ta-	e-	.	.	.	.
.	.	.	.	.	.	.	.	.	32ff#\	.	.	.	.	.	.
.	.	.	16g/LL	.	16ee\LL	.	.	.	32gg\	.	.	.	.	.	.
.	.	.	.	.	.	.	.	.	32ff#\JJJ	.	.	.	.	.	.
8r	.	.	16g/	.	16ee\	.	.	.	32aa\LLL	.	-e-	.	.	.	.
.	.	.	.	.	.	.	.	.	32gg\	.	.	.	.	.	.
.	.	.	16g/JJ	.	16ee\JJ	.	.	.	32ff#\	.	.	.	.	.	.
.	.	.	.	.	.	.	.	.	32ee\JJJ	.	.	.	.	.	.
=50	=50	=50	=50	=50	=50	=50	=50	=50	=50	=50	=50	=50	=50	=50	=50
8d\	.	.	16r	.	16r	.	2ryy	.	8dd\	.	-e-	2ryy	2ryy	2r	2r
.	.	.	16g/LL	.	16b\LL	.	.	.	.	.	.	.	.	.	.
8r	.	.	16g/	.	16b\	.	.	.	32ff#X\LLL	.	.	.	.	.	.
.	.	.	.	.	.	.	.	.	32ee\JJJ	.	.	.	.	.	.
.	.	.	16g/JJ	.	16b\JJ	.	.	.	32dd\LLL	-bit	.	.	.	.	.
.	.	.	.	.	.	.	.	.	32cc\JJJ	.	.	.	.	.	.
!	!	!	!LO:LB:g=original	!	!	!	!	!	!	!	!	!	!	!	!
8D/	.	.	16r	.	16r	.	.	.	8b\L	ca-	-lei-	.	.	.	.
.	.	.	16aLL 16f#X/	.	16cc\LL	.	.	.	.	.	.	.	.	.	.
8r	.	.	16a 16f#/	.	16cc\	.	.	.	8aT\J	.	.	.	.	.	.
.	.	.	16aJJ 16f#/	.	16cc\JJ	.	.	.	.	.	.	.	.	.	.
=51	=51	=51	=51	=51	=51	=51	=51	=51	=51	=51	=51	=51	=51	=51	=51
*tremolo	*	*	*	*	*	*	*	*	*	*	*	*	*	*	*
8GG/L	8 3	.	16g/LL	.	16b/LL	.	2ryy	.	8g\	-put	-son	2ryy	2ryy	2r	2r
.	.	.	16g/	.	16g/	.	.	.	.	.	.	.	.	.	.
8GG/	.	.	16d/	.	16d/	.	.	.	8r	.	.	.	.	.	.
.	.	.	16B/JJ	.	16B/JJ	.	.	.	.	.	.	.	.	.	.
8GG/	.	.	8G/	.	8G/	.	.	.	8r	.	.	.	.	.	.
8GG/J	.	.	8r	.	8r	.	.	.	16b\LL	pro-	e-	.	.	.	.
.	.	.	.	.	.	.	.	.	16cc\JJ	.	.	.	.	.	.
!LO:PB:g=original	!	!	!	!	!LO:LB:g=original	!	!	!	!	!	!	!	!	!	!
=52	=52	=52	=52	=52	=52	=52	=52	=52	=52	=52	=52	=52	=52	=52	=52
8GG/L	5 3	.	16r	.	16r	.	2ryy	.	16.dd\	-pte-	-e-	2ryy	2ryy	2r	2r
.	.	.	16b/LL	.	16b/LL	.	.	.	.	.	.	.	.	.	.
.	.	.	.	.	.	.	.	.	32dd\	-re-	-lei-	.	.	.	.
8GG/	.	.	16g/	.	16g/	.	.	.	8dd\	-a	-son	.	.	.	.
.	.	.	16d/JJ	.	16d/JJ	.	.	.	.	.	.	.	.	.	.
!	!	!	!	!	!LO:SIC:v:s=16B/LL	!	!	!	!	!	!	!	!	!	!
8GG/	.	.	16B/LL	.	16c/LL	.	.	.	8r	.	.	.	.	.	.
.	.	.	16G/JJ	.	16G/JJ	.	.	.	.	.	.	.	.	.	.
*	*	*	*	*	*	*	*	*	*	*	*ij	*	*	*	*
8GG/J	.	.	8r	.	8r	.	.	.	16cc\LL	pro-	e-	.	.	.	.
.	.	.	.	.	.	.	.	.	16dd\JJ	.	.	.	.	.	.
=53	=53	=53	=53	=53	=53	=53	=53	=53	=53	=53	=53	=53	=53	=53	=53
8GG/L	6 4	.	16r	.	16r	.	2ryy	.	16.ee\	-pte-	-e-	2ryy	2ryy	2r	2r
.	.	.	16cc/LL	.	16cc/LL	.	.	.	.	.	.	.	.	.	.
.	.	.	.	.	.	.	.	.	32ee\	-re-	-lei-	.	.	.	.
8GG/	.	.	16g/	.	16g/	.	.	.	8ee\	-a	-son	.	.	.	.
*	*	*	*	*	*	*	*	*	*	*	*Xij	*	*	*	*
.	.	.	16e/JJ	.	16e/JJ	.	.	.	.	.	.	.	.	.	.
!	!	!	!	!	!	!	!	!	!LO:LB:g=original	!	!	!	!	!	!
8GG/	.	.	16c/LL	.	16c/LL	.	.	.	8r	.	.	.	.	.	.
.	.	.	16G/JJ	.	16G/JJ	.	.	.	.	.	.	.	.	.	.
8GG/J	.	.	8r	.	8r	.	.	.	16dd\LL	pro-	e	.	.	.	.
.	.	.	.	.	.	.	.	.	16ee\JJ	.	.	.	.	.	.
*Xtremolo	*	*	*	*	*	*	*	*	*	*	*	*	*	*	*
=54	=54	=54	=54	=54	=54	=54	=54	=54	=54	=54	=54	=54	=54	=54	=54
!	!	!	!	!	!	!	!	!	!	!	!	!	!	!LO:TX:t=P:problem=fermata również u dołu	!LO:TX:t=P:problem=fermata również u dołu
16GG/LL	r7n 5	.	16r	.	16r	.	2ryy	.	16.ffn\	-pte-	e-	2ryy	2ryy	2r;<;>	2r;<;>
16GG/J	.	.	16dd/LL	.	16dd/LL	.	.	.	.	.	.	.	.	.	.
.	.	.	.	.	.	.	.	.	32ff\	-re-	-lei-	.	.	.	.
8GG;</J	.	.	16b/	.	16b/	.	.	.	8ff;;\	-a	-son	.	.	.	.
.	.	.	16g/JJ	.	16g/JJ	.	.	.	.	.	.	.	.	.	.
4r	.	.	8fn 8G;/	.	8fn 8G;/	.	.	.	8r	.	.	.	.	.	.
.	.	.	16e/LL	.	16cc\LL	.	.	.	16ee\LL	pro-	Chri-	.	.	.	.
!	!	!	!	!	!	!LO:DY:b:t=p.	!	!	!	!	!	!	!	!	!
.	.	.	16f/JJ	.	16dd\JJ	p	.	.	16ff\JJ	.	.	.	.	.	.
=55	=55	=55	=55	=55	=55	=55	=55	=55	=55	=55	=55	=55	=55	=55	=55
4c\	.	.	8g/L	.	8ee\L	.	2ryy	.	8gg\	-pte-	.	2ryy	2ryy	2r	2r
.	.	.	16g/L	.	16ee\L	.	.	.	16gg\	-re-	-ste	.	.	.	.
.	.	.	16g/JJ	.	16ee\JJ	.	.	.	16gg\	-a	e-	.	.	.	.
4G\	.	.	16g/LL	.	16ee\LL	.	.	.	(16gg\LL	e-	.	.	.	.	.
.	.	.	16a/	.	16ff\	.	.	.	16aa\	.	.	.	.	.	.
.	.	.	16g/	.	16ee\	.	.	.	16.gg\)	.	.	.	.	.	.
.	.	.	16f/JJ	.	16dd\JJ	.	.	.	.	.	.	.	.	.	.
.	.	.	.	.	.	.	.	.	32ff|\JJk	-xal-	.	.	.	.	.
=56	=56	=56	=56	=56	=56	=56	=56	=56	=56	=56	=56	=56	=56	=56	=56
8G#X\L	7 5	.	16f/LL	.	16dd\LL	.	2ryy	.	16ff\LL	-ta-	-lei-	2ryy	2ryy	2r	2r
.	.	.	16e/J	.	16cc\J	.	.	.	16ee\JJ	.	.	.	.	.	.
8A\J	5 3	.	8e/J	.	8cc\J	.	.	.	8ee\	-bit	-son	.	.	.	.
8r	.	.	4r	.	32ccc\LLL	.	.	.	8r	.	.	.	.	.	.
.	.	.	.	.	32bb\	.	.	.	.	.	.	.	.	.	.
.	.	.	.	.	32aa\	.	.	.	.	.	.	.	.	.	.
.	.	.	.	.	32gg\JJJ	.	.	.	.	.	.	.	.	.	.
16r	.	.	.	.	32ff\LLL	.	.	.	16ee\	e-	e-	.	.	.	.
.	.	.	.	.	32ee\	.	.	.	.	.	.	.	.	.	.
16E\	.	.	.	.	32dd\	.	.	.	16gg\	-xal-	.	.	.	.	.
.	.	.	.	.	32cc\JJJ	.	.	.	.	.	.	.	.	.	.
=57	=57	=57	=57	=57	=57	=57	=57	=57	=57	=57	=57	=57	=57	=57	=57
4F\	.	.	16f/LL	.	16a\LL	.	2ryy	.	16gg\LL	-ta-	-lei-	2ryy	2ryy	2r	2r
.	.	.	16d/	.	16b\	.	.	.	16ff\JJ	.	.	.	.	.	.
.	.	.	16e/	.	16cc\	.	.	.	(32ee\LLL	.	.	.	.	.	.
.	.	.	.	.	.	.	.	.	32dd\	.	.	.	.	.	.
.	.	.	16f/JJ	.	16dd\JJ	.	.	.	32ff\)	.	.	.	.	.	.
.	.	.	.	.	.	.	.	.	32dd|\JJJ	-bit	.	.	.	.	.
!LO:TX:t=P:problem=mixed beam	!	!	!	!	!	!	!	!	!	!	!	!	!	!	!
8G\L	.	.	16e/LL	.	16cc\LL	.	.	.	16.cc\LL	Ca-	.	.	.	.	.
.	.	.	16e/	.	16cc\	.	.	.	.	.	.	.	.	.	.
.	.	.	.	.	.	.	.	.	32dd\JK	.	.	.	.	.	.
8GG/J	.	.	16d/	.	16b\	.	.	.	8ddT\J	.	.	.	.	.	.
.	.	.	16d/JJ	.	16b\JJ	.	.	.	.	.	.	.	.	.	.
=58	=58	=58	=58	=58	=58	=58	=58	=58	=58	=58	=58	=58	=58	=58	=58
!	!	!	!	!	!LO:TX:t=P:problem=mixed beam	!	!	!	!	!	!	!	!	!	!
!	!	!	!	!	!	!	!	!	!	!	!	!	!	!LO:N:vis=8	!
4C/	.	.	16e/LL	.	16cc\LL	.	2ryy	.	8cc\	-put	-son	2ryy	2ryy	16e/LL	16cc\LL
!	!	!	!	!	!	!	!	!	!	!	!	!	!	!LO:N:vis=8	!
.	.	.	16B/	.	16B/	.	.	.	.	.	.	.	.	16g/	16b\
!	!	!	!	!	!	!	!	!	!	!	!	!	!	!LO:N:vis=8	!
.	.	.	16c/	.	16c/	.	.	.	8r	.	.	.	.	16a/	16cc\
!	!	!	!	!	!	!	!	!	!	!	!	!	!	!LO:N:vis=8	!
.	.	.	16B/JJ	.	16d/JJ	.	.	.	.	.	.	.	.	16b/JJ	16dd\JJ
!	!	!	!	!	!	!	!	!	!	!	!	!	!	!LO:N:vis=8	!
4r	.	.	16c/LL	.	16e/LL	.	.	.	4r	.	.	.	.	16cc\LL	16ee\LL
!	!	!	!	!	!	!	!	!	!	!	!	!	!	!LO:N:vis=8	!
.	.	.	16B/	.	16d/	.	.	.	.	.	.	.	.	16b\	16dd\
!	!	!	!	!	!	!	!	!	!	!	!	!	!	!LO:N:vis=8	!
.	.	.	16c/	.	16e/	.	.	.	.	.	.	.	.	16cc\	16ee\
!	!	!	!	!	!	!	!	!	!	!	!	!	!	!LO:N:vis=8	!
.	.	.	16d/JJ	.	16f/JJ	.	.	.	.	.	.	.	.	16dd\JJ	16ff\JJ
!	!	!	!LO:LB:g=original	!	!LO:LB:g=original	!	!	!	!	!	!	!	!	!	!
=59	=59	=59	=59	=59	=59	=59	=59	=59	=59	=59	=59	=59	=59	=59	=59
4c\	.	.	8e/L	.	8g/L	.	2ryy	.	2r	.	.	2ryy	2ryy	8ee\L	8gg\L
.	.	.	16e/L	.	16g/L	.	.	.	.	.	.	.	.	16ee\L	16gg\L
.	.	.	16e/JJ	.	16g/JJ	.	.	.	.	.	.	.	.	16ee\JJ	16gg\JJ
4G\	.	.	16e/LL	.	16g/LL	.	.	.	.	.	.	.	.	16ee\LL	16gg\LL
.	.	.	16f/	.	16a/	.	.	.	.	.	.	.	.	16ff\	16aa\
.	.	.	16e/	.	16g/	.	.	.	.	.	.	.	.	16ee\	16gg\
.	.	.	16d/JJ	.	16f/JJ	.	.	.	.	.	.	.	.	16dd\JJ	16ff\JJ
=60	=60	=60	=60	=60	=60	=60	=60	=60	=60	=60	=60	=60	=60	=60	=60
8G#X\L	7 5	.	8d/L	.	8f/L	.	2ryy	.	2r	.	.	2ryy	2ryy	8dd\L	8ff\L
8A\J	6 4	.	8c/J	.	8e/J	.	.	.	.	.	.	.	.	8cc\J	8ee\J
4r	.	.	4r	.	32cc\LLL	.	.	.	.	.	.	.	.	8r	8r
.	.	.	.	.	32dd\	.	.	.	.	.	.	.	.	.	.
.	.	.	.	.	32ee\	.	.	.	.	.	.	.	.	.	.
.	.	.	.	.	32ff\JJJ	.	.	.	.	.	.	.	.	.	.
.	.	.	.	.	32gg\LLL	.	.	.	.	.	.	.	.	16b\LL	16dd\LL
.	.	.	.	.	32aa\	.	.	.	.	.	.	.	.	.	.
.	.	.	.	.	32bb\	.	.	.	.	.	.	.	.	16cc\JJ	16ee\JJ
.	.	.	.	.	32ccc\JJJ	.	.	.	.	.	.	.	.	.	.
=61	=61	=61	=61	=61	=61	=61	=61	=61	=61	=61	=61	=61	=61	=61	=61
2r	.	.	2r	.	8ccc\L	.	2ryy	.	2r	.	.	2ryy	2ryy	8dd\L	8ff\L
.	.	.	.	.	16bb\L	.	.	.	.	.	.	.	.	16ee\L	16gg\L
.	.	.	.	.	16aa\JJ	.	.	.	.	.	.	.	.	16ff\JJ	16aa\JJ
.	.	.	.	.	16aa\LL	.	.	.	.	.	.	.	.	16ff\LL	16aa\LL
.	.	.	.	.	16gg\	.	.	.	.	.	.	.	.	16ee\	16gg\
.	.	.	.	.	16ff\	.	.	.	.	.	.	.	.	16dd\	16ff\
.	.	.	.	.	16ee\JJ	.	.	.	.	.	.	.	.	16cc\JJ	16ee\JJ
=62	=62	=62	=62	=62	=62	=62	=62	=62	=62	=62	=62	=62	=62	=62	=62
4G\	6 4	.	8.e/L	.	8.gg\L	.	2ryy	.	2r	.	.	2ryy	2ryy	8.ee|\L	8.gg|\L
.	.	.	16c/Jk	.	16ee\Jk	.	.	.	.	.	.	.	.	16cc\Jk	16ee\Jk
!	!	!	!	!	!LO:TX:t=P:problem=mixed beam	!	!	!	!	!	!	!	!	!	!
!	!	!	!	!	!	!	!	!	!	!	!	!	!	!LO:LB:g=original	!
8GG/	5 3	.	8B/L	.	8dd\L	.	.	.	.	.	.	.	.	8b\L	8dd\L
8r	.	.	16c/L	.	16e/L	.	.	.	.	.	.	.	.	16cc\L	16ee\L
.	.	.	16d/JJ	.	16f/JJ	.	.	.	.	.	.	.	.	16dd\JJ	16ff\JJ
=63	=63	=63	=63	=63	=63	=63	=63	=63	=63	=63	=63	=63	=63	=63	=63
4c\	.	.	8e/L	.	8g/L	.	2ryy	.	2r	.	.	2ryy	2ryy	8ee\L	8gg\L
.	.	.	16e/L	.	16g/L	.	.	.	.	.	.	.	.	16ee\L	16gg\L
.	.	.	16e/JJ	.	16g/JJ	.	.	.	.	.	.	.	.	16ee\JJ	16gg\JJ
4G\	.	.	16e/LL	.	16g/LL	.	.	.	.	.	.	.	.	16ee\LL	16gg\LL
.	.	.	16f/	.	16a/	.	.	.	.	.	.	.	.	16ff\	16aa\
.	.	.	16e/	.	16g/	.	.	.	.	.	.	.	.	16ee\	16gg\
.	.	.	16d/JJ	.	16f/JJ	.	.	.	.	.	.	.	.	16dd\JJ	16ff\JJ
!	!	!	!	!	!	!	!	!	!	!	!	!	!	!	!LO:LB:g=original
=64	=64	=64	=64	=64	=64	=64	=64	=64	=64	=64	=64	=64	=64	=64	=64
8G#X\L	7 5	.	8d/L	.	8f/L	.	2ryy	.	2r	.	.	2ryy	2ryy	8dd\L	8ff\L
8A\J	6 4	.	8c/J	.	8e/J	.	.	.	.	.	.	.	.	8cc\J	8ee\J
4r	.	.	4r	.	32cc\LLL	.	.	.	.	.	.	.	.	4r	4r
.	.	.	.	.	32dd\	.	.	.	.	.	.	.	.	.	.
.	.	.	.	.	32ee\	.	.	.	.	.	.	.	.	.	.
.	.	.	.	.	32ff\JJJ	.	.	.	.	.	.	.	.	.	.
.	.	.	.	.	32gg\LLL	.	.	.	.	.	.	.	.	.	.
.	.	.	.	.	32aa\	.	.	.	.	.	.	.	.	.	.
.	.	.	.	.	32bb\	.	.	.	.	.	.	.	.	.	.
.	.	.	.	.	32ccc\JJJ	.	.	.	.	.	.	.	.	.	.
=65	=65	=65	=65	=65	=65	=65	=65	=65	=65	=65	=65	=65	=65	=65	=65
!LO:TX:t=P:problem=mixed beam	!	!	!	!	!	!	!	!	!	!	!	!	!	!	!
8F\L	.	.	16.a/LL	.	16.ccc\LL	.	2ryy	.	2r	.	.	2ryy	2ryy	16.ff\LL	16.aa\LL
.	.	.	32f/K	.	32aa\K	.	.	.	.	.	.	.	.	32dd\K	32ff\K
8F\	.	.	16.a/	.	16.ccc\	.	.	.	.	.	.	.	.	16.ff\	16.aa\
.	.	.	32f/JJk	.	32aa\JJk	.	.	.	.	.	.	.	.	32dd\JJk	32ff\JJk
8G\	.	.	16e/LL	.	16gg\LL	.	.	.	.	.	.	.	.	16ee\LL	16gg\LL
.	.	.	16a/	.	16ff\	.	.	.	.	.	.	.	.	16a\	16ff\
8GG/J	.	.	16g/	.	16ee\	.	.	.	.	.	.	.	.	16g\	16ee\
.	.	.	16f/JJ	.	16dd\JJ	.	.	.	.	.	.	.	.	16f\JJ	16dd\JJ
!LO:LB:g=original	!	!	!	!	!LO:LB:g=original	!	!	!	!	!	!	!	!	!	!
=66	=66	=66	=66	=66	=66	=66	=66	=66	=66	=66	=66	=66	=66	=66	=66
8C/L	.	.	8f/L	.	8dd\L	.	2ryy	.	2r	.	.	2ryy	2ryy	8f/L	8dd\L
8CC/J	.	.	8e/J	.	8cc\J	.	.	.	.	.	.	.	.	8e/J	8cc\J
4r	.	.	4r	.	4r	.	.	.	.	.	.	.	.	16b\LL	16dd\LL
.	.	.	.	.	.	.	.	.	.	.	.	.	.	16b\	16dd#X\
.	.	.	.	.	.	.	.	.	.	.	.	.	.	16cc\	16ee\
.	.	.	.	.	.	.	.	.	.	.	.	.	.	16cc#X\JJ	16ee\JJ
=67	=67	=67	=67	=67	=67	=67	=67	=67	=67	=67	=67	=67	=67	=67	=67
!LO:TX:t=P:problem=mixed beam	!	!	!	!	!	!	!	!	!	!	!	!	!	!	!
8G\L	.	.	32g/LLL	.	32g/LLL	.	2ryy	.	2r	.	.	2ryy	2ryy	8.dd|\L	8.ff|\L
.	.	.	32G/	.	32G/	.	.	.	.	.	.	.	.	.	.
.	.	.	32B/	.	32B/	.	.	.	.	.	.	.	.	.	.
.	.	.	32d/JJJ	.	32d/JJJ	.	.	.	.	.	.	.	.	.	.
8GG/J	.	.	16g/	.	16g/	.	.	.	.	.	.	.	.	.	.
.	.	.	16r	.	16r	.	.	.	.	.	.	.	.	16ccn\Jk	16ee\Jk
4r	.	.	4r	.	4r	.	.	.	.	.	.	.	.	16b\LL	16ddn\LL
.	.	.	.	.	.	.	.	.	.	.	.	.	.	16cc\	16ee\
.	.	.	.	.	.	.	.	.	.	.	.	.	.	16dd\	16ff\
.	.	.	.	.	.	.	.	.	.	.	.	.	.	16dd#X\JJ	16ff#X\JJ
=68	=68	=68	=68	=68	=68	=68	=68	=68	=68	=68	=68	=68	=68	=68	=68
!LO:TX:t=P:problem=mixed beam	!	!	!LO:TX:t=P:problem=mixed beam	!	!LO:TX:t=P:problem=mixed beam	!	!	!	!	!	!	!	!	!	!
8c\L	.	.	32cc\LLL	.	32cc\LLL	.	2ryy	.	2r	.	.	2ryy	2ryy	8.ee|\L	8.gg|\L
.	.	.	32c/	.	32c/	.	.	.	.	.	.	.	.	.	.
.	.	.	32e/	.	32e/	.	.	.	.	.	.	.	.	.	.
.	.	.	32g/JJJ	.	32g/JJJ	.	.	.	.	.	.	.	.	.	.
8C/J	.	.	16cc\	.	16cc\	.	.	.	.	.	.	.	.	.	.
.	.	.	16r	.	16r	.	.	.	.	.	.	.	.	16ddn\Jk	16ffn\Jk
8r	.	.	4r	.	4r	.	.	.	.	.	.	.	.	16cc\LL	16ee\LL
.	.	.	.	.	.	.	.	.	.	.	.	.	.	16dd\	16ff\
8E\	.	.	.	.	.	.	.	.	.	.	.	.	.	16ee\	16gg\
.	.	.	.	.	.	.	.	.	.	.	.	.	.	16ee\JJ	16gg#X\JJ
!	!	!	!LO:LB:g=original	!	!	!	!	!	!	!	!	!	!	!	!
=69	=69	=69	=69	=69	=69	=69	=69	=69	=69	=69	=69	=69	=69	=69	=69
4F\	.	.	16a/LL	.	16cc/LL	.	2ryy	.	2r	.	.	2ryy	2ryy	16ff\LL	16aa\LL
.	.	.	16f/	.	16a/	.	.	.	.	.	.	.	.	16a\	16ff\
.	.	.	16e/	.	16g/	.	.	.	.	.	.	.	.	16g\	16ee\
.	.	.	16d/JJ	.	16f/JJ	.	.	.	.	.	.	.	.	16f\JJ	16dd\JJ
!LO:TX:t=P:problem=mixed beam	!	!	!	!	!	!	!	!	!	!	!	!	!	!	!
8G\L	.	.	8c/L	.	8e/L	.	.	.	.	.	.	.	.	8e/L	8cc\L
8GG/J	.	.	8B/J	.	8d/J	.	.	.	.	.	.	.	.	8d/J	8b\J
=70	=70	=70	=70	=70	=70	=70	=70	=70	=70	=70	=70	=70	=70	=70	=70
8C/L	.	.	8d/L	.	8f/L	.	2ryy	.	2r	.	.	2ryy	2ryy	8f/L	8dd\L
8CC/J	.	.	8c/J	.	8e/J	.	.	.	.	.	.	.	.	8e/J	8cc\J
4r	.	.	4r	.	4r	.	.	.	.	.	.	.	.	16b\LL	16dd\LL
.	.	.	.	.	.	.	.	.	.	.	.	.	.	16b\	16dd#X\
.	.	.	.	.	.	.	.	.	.	.	.	.	.	16cc\	16ee\
.	.	.	.	.	.	.	.	.	.	.	.	.	.	16cc#X\JJ	16ee\JJ
!	!	!	!	!	!	!	!	!	!	!	!	!	!	!LO:LB:g=original	!
=71	=71	=71	=71	=71	=71	=71	=71	=71	=71	=71	=71	=71	=71	=71	=71
!LO:TX:t=P:problem=mixed beam	!	!	!	!	!	!	!	!	!	!	!	!	!	!	!
8G\L	.	.	32g/LLL	.	32g/LLL	.	2ryy	.	2r	.	.	2ryy	2ryy	8.dd|\L	8.ff|\L
.	.	.	32G/	.	32G/	.	.	.	.	.	.	.	.	.	.
.	.	.	32B/	.	32B/	.	.	.	.	.	.	.	.	.	.
.	.	.	32d/JJJ	.	32d/JJJ	.	.	.	.	.	.	.	.	.	.
8GG/J	.	.	16g/	.	16g/	.	.	.	.	.	.	.	.	.	.
.	.	.	16r	.	16r	.	.	.	.	.	.	.	.	16ccn\Jk	16ee\Jk
4r	.	.	4r	.	4r	.	.	.	.	.	.	.	.	16b\LL	16ddn\LL
.	.	.	.	.	.	.	.	.	.	.	.	.	.	16cc\	16ee\
.	.	.	.	.	.	.	.	.	.	.	.	.	.	16dd\	16ff\
.	.	.	.	.	.	.	.	.	.	.	.	.	.	16dd#X\JJ	16ff#X\JJ
=72	=72	=72	=72	=72	=72	=72	=72	=72	=72	=72	=72	=72	=72	=72	=72
!LO:TX:t=P:problem=mixed beam	!	!	!LO:TX:t=P:problem=mixed beam	!	!LO:TX:t=P:problem=mixed beam	!	!	!	!	!	!	!	!	!	!
8c\L	.	.	32cc\LLL	.	32cc\LLL	.	2ryy	.	2r	.	.	2ryy	2ryy	8.ee|\L	8.gg|\L
.	.	.	32c/	.	32c/	.	.	.	.	.	.	.	.	.	.
.	.	.	32e/	.	32e/	.	.	.	.	.	.	.	.	.	.
.	.	.	32g/JJJ	.	32g/JJJ	.	.	.	.	.	.	.	.	.	.
8C/J	.	.	16cc\	.	16cc\	.	.	.	.	.	.	.	.	.	.
.	.	.	16r	.	16r	.	.	.	.	.	.	.	.	16ddn\Jk	16ffn\Jk
8r	.	.	4r	.	4r	.	.	.	.	.	.	.	.	16cc\LL	16ee\LL
.	.	.	.	.	.	.	.	.	.	.	.	.	.	16dd\	16ff\
8E\	.	.	.	.	.	.	.	.	.	.	.	.	.	16ee\	16gg\
.	.	.	.	.	.	.	.	.	.	.	.	.	.	16ee\JJ	16gg#X\JJ
!	!	!	!	!	!	!	!	!	!	!	!	!	!	!	!LO:LB:g=original
=73	=73	=73	=73	=73	=73	=73	=73	=73	=73	=73	=73	=73	=73	=73	=73
!LO:TX:t=P:problem=mixed beam	!	!	!	!	!	!	!	!	!	!	!	!	!	!	!
8F\L	.	.	16f/LL	.	16a/LL	.	2ryy	.	2r	.	.	2ryy	2ryy	16ff\LL	16aa\LL
.	.	.	16g/	.	16b/	.	.	.	.	.	.	.	.	16gg\	16bb\
8F\	.	.	16.a/	.	16.cc/	.	.	.	.	.	.	.	.	16.aa\	16.ccc\
.	.	.	32f/JJk	.	32a/JJk	.	.	.	.	.	.	.	.	32ff\JJk	32aa\JJk
8G\	.	.	16e/LL	.	16g/LL	.	.	.	.	.	.	.	.	16ee\LL	16gg\LL
.	.	.	16d/	.	16f/	.	.	.	.	.	.	.	.	16a\	16ff\
8GG/J	.	.	16c/	.	16e/	.	.	.	.	.	.	.	.	16g\	16ee\
.	.	.	16B/JJ	.	16d/JJ	.	.	.	.	.	.	.	.	16f\JJ	16dd\JJ
!	!	!	!	!	!LO:LB:g=original	!	!	!	!	!	!	!	!	!	!
=74	=74	=74	=74	=74	=74	=74	=74	=74	=74	=74	=74	=74	=74	=74	=74
8C/L	.	.	8c/L	.	8c/L	.	2ryy	.	2r	.	.	2ryy	2ryy	8e/L	8cc\L
8CC/	.	.	16.eL 16.G/	.	16.ccL 16.e 16.G/	.	.	.	.	.	.	.	.	16.e/L	16.cc\L
.	.	.	32eJJk 32G/	.	32ccJJk 32e 32G/	.	.	.	.	.	.	.	.	32e/JJk	32cc\JJk
!LO:TX:b:i:t=Gloria ut [[Dixit]]\nDomine:note=korekta dokonana czerwonym ołówkiem	!	!	!	!	!	!	!	!	!	!	!	!	!	!LO:TX:b:i:t=Gloria ut Domine	!
8CC/J	.	.	8e 8G/	.	8cc 8e 8G/	.	.	.	.	.	.	.	.	4e/	8cc\
!	!	!	!LO:TX:b:i:t=Gloria ut Domine	!	!LO:TX:b:i:t=Gloria Patri ut Domine Da Capo	!	!	!	!	!	!	!	!	!	!LO:TX:b:i:t=Gloria DaCapo ut Domine
8r	.	.	8r	.	8r	.	.	.	.	.	.	.	.	.	8r
=75||	=75||	=75||	=75||	=75||	=75||	=75||	=75||	=75||	=75||	=75||	=75||	=75||	=75||	=75||	=75||
!!LO:TX:t=P:problem:fragment da capo (powtórka części "Domine ad adiuvandum"), zapisane jedynie głosy wokalne, co wynika z konieczności adaptacji do zmienionego tekstu
!LO:TX:a:i:t=Allegro	!	!	!LO:TX:a:i:t=allegro	!	!LO:TX:a:i:t=allegro	!	!LO:TX:a:i:t=allegro	!	!LO:TX:a:i:t=allegro Moderato	!	!	!	!	!LO:TX:a:i:t=Allegro	!LO:TX:a:i:t=Allegro
!	!	!	!	!	!	!LO:DY:a:t=for	!	!	!	!	!	!	!	!	!
!	!	!	!	!LO:DY:a:t=for	!	!	!	!	!	!	!	!	!	!	!
!	!	!LO:DY:a:t=for&colon;	!	!	!	!	!	!	!	!	!	!	!	!LO:TX:i:t=1. Kyrie:note=zapis ołówkiem	!
8CC/Lyy	.	f	4cc/yy 4e/yy 4G/yy	f	4cc/yy 4e/yy 4G/yy	f	4c\	Glo-	4cc\	Glo-	.	1ryyyy	1ryyyy	4cc\yy	4ee\yy
8C/yy	.	.	.	.	.	.	.	.	.	.	.	.	.	.	.
8C/yy	.	.	4cc/yy 4e/yy 4G/yy	.	4cc/yy 4e/yy 4G/yy	.	4c\	-ri-	4cc\	-ri-	.	.	.	4cc\yy	4ee\yy
8C/Jyy	.	.	.	.	.	.	.	.	.	.	.	.	.	.	.
*tremolo	*	*	*	*	*	*	*	*	*	*	*	*	*	*	*
8C/Lyy	.	.	4cc/yy 4e/yy 4G/yy	.	4cc/yy 4e/yy 4G/yy	.	4c\	-a	4cc\	-a	.	.	.	4cc\yy	4ee\yy
8C/yy	.	.	.	.	.	.	.	.	.	.	.	.	.	.	.
.	.	.	.	.	8qqdd/yy	.	.	.	.	.	.	.	.	.	.
8C/yy	.	.	16e/LLyy	.	16cc\LLyy	.	4c\	Pa-	4cc\	pa-	.	.	.	8cc\Lyy	8ee\Lyy
.	.	.	16d/yy	.	16b\yy	.	.	.	.	.	.	.	.	.	.
8C/Jyy	.	.	16e/yy	.	16cc\yy	.	.	.	.	.	.	.	.	8dd\Jyy	8ff\Jyy
.	.	.	16f/JJyy	.	16dd\JJyy	.	.	.	.	.	.	.	.	.	.
=76	=76	=76	=76	=76	=76	=76	=76	=76	=76	=76	=76	=76	=76	=76	=76
8C/Lyy	.	.	8g/Lyy	.	8ee\Lyy	.	4c\	-tri	4cc\	-tri	.	1ryyyy	1ryyyy	4ee\yy	4gg\yy
8C/yy	.	.	8e/yy	.	8cc\yy	.	.	.	.	.	.	.	.	.	.
8C/yy	.	.	8e/yy	.	8g\yy	.	4r	.	4r	.	.	.	.	4ryy	4ryy
8C/Jyy	.	.	8c/Jyy	.	8e\Jyy	.	.	.	.	.	.	.	.	.	.
8E\Lyy	.	.	8G/Lyy	.	8c/Lyy	.	4r	.	4r	.	.	.	.	2ryy	2ryy
8E\yy	.	.	8c/yy	.	8e/yy	.	.	.	.	.	.	.	.	.	.
8E\yy	.	.	8e/yy	.	8g/yy	.	4c\	glo-	4cc\	glo-	.	.	.	.	.
8E\Jyy	.	.	8g/Jyy	.	8cc/Jyy	.	.	.	.	.	.	.	.	.	.
=77	=77	=77	=77	=77	=77	=77	=77	=77	=77	=77	=77	=77	=77	=77	=77
*	*	*	*tremolo	*	*	*	*	*	*	*	*	*	*	*	*
8F\Lyy	.	.	16a/yy 16f/LLyy	.	4a/yy	.	4F\	-ri-	4a\	-ri-	.	1ryyyy	1ryyyy	4f/yy	4a/yy
.	.	.	16a/yy 16f/yy	.	.	.	.	.	.	.	.	.	.	.	.
8F\yy	.	.	16a/yy 16f/yy	.	.	.	.	.	.	.	.	.	.	.	.
.	.	.	16a/yy 16f/yy	.	.	.	.	.	.	.	.	.	.	.	.
8F\yy	.	.	16a/yy 16f/yy	.	4ff/yy 4a/yy	.	4A\	-a	4ff\	-a	.	.	.	4a/yy	4ff\yy
.	.	.	16a/yy 16f/yy	.	.	.	.	.	.	.	.	.	.	.	.
8F\Jyy	.	.	16a/yy 16f/yy	.	.	.	.	.	.	.	.	.	.	.	.
.	.	.	16a/yy 16f/JJyy	.	.	.	.	.	.	.	.	.	.	.	.
8G\Lyy	.	.	16b/yy 16d/LLyy	.	4b/yy 4d/yy	.	4G\	fi-	4dd\	fi-	.	.	.	4g/yy	4b\yy
.	.	.	16b/yy 16d/yy	.	.	.	.	.	.	.	.	.	.	.	.
8G\yy	.	.	16b/yy 16d/yy	.	.	.	.	.	.	.	.	.	.	.	.
.	.	.	16b/yy 16d/yy	.	.	.	.	.	.	.	.	.	.	.	.
8G\yy	.	.	16b/yy 16d/yy	.	4gg/yy 4b/yy	.	4G\	-li-	4b\	-li-	.	.	.	4b/yy	4gg\yy
.	.	.	16b/yy 16d/yy	.	.	.	.	.	.	.	.	.	.	.	.
8G\Jyy	.	.	16b/yy 16d/yy	.	.	.	.	.	.	.	.	.	.	.	.
.	.	.	16b/yy 16d/JJyy	.	.	.	.	.	.	.	.	.	.	.	.
*Xtremolo	*	*	*Xtremolo	*	*	*	*	*	*	*	*	*	*	*	*
=78	=78	=78	=78	=78	=78	=78	=78	=78	=78	=78	=78	=78	=78	=78	=78
4c\yy	.	.	8cc/L 8e/ 8G/yy	.	8ee\Lyy	.	4c\	-o	4cc\	-o	.	1ryyyy	1ryyyy	4cc\yy	4ee\yy
.	.	.	8g/yy	.	8cc\yy	.	.	.	.	.	.	.	.	.	.
4ryy	.	.	8e/yy	.	8g\yy	.	4r	.	4r	.	.	.	.	4ryy	4ryy
.	.	.	8c/Jyy	.	8e\Jyy	.	.	.	.	.	.	.	.	.	.
2ryy	.	.	8G/Lyy	.	8c/Lyy	.	4r	.	4r	.	.	.	.	2ryy	2ryy
.	.	.	8c/yy	.	8e/yy	.	.	.	.	.	.	.	.	.	.
.	.	.	8e/yy	.	8g/yy	.	4c\	glo-	4cc\	glo-	.	.	.	.	.
.	.	.	8g/Jyy	.	8cc/Jyy	.	.	.	.	.	.	.	.	.	.
=79	=79	=79	=79	=79	=79	=79	=79	=79	=79	=79	=79	=79	=79	=79	=79
*tremolo	*	*	*tremolo	*	*	*	*	*	*	*	*	*	*	*	*
8F\Lyy	.	.	16a/yy 16f/LLyy	.	4a/yy	.	4F\	-ri-	4a\	-ri-	.	1ryyyy	1ryyyy	4f/yy	4a/yy
.	.	.	16a/yy 16f/yy	.	.	.	.	.	.	.	.	.	.	.	.
8F\yy	.	.	16a/yy 16f/yy	.	.	.	.	.	.	.	.	.	.	.	.
.	.	.	16a/yy 16f/yy	.	.	.	.	.	.	.	.	.	.	.	.
8F\yy	.	.	16a/yy 16f/yy	.	4ff/yy 4a/yy	.	4A\	-a	4ff\	-a	.	.	.	4a/yy	4ff\yy
.	.	.	16a/yy 16f/yy	.	.	.	.	.	.	.	.	.	.	.	.
8F\Jyy	.	.	16a/yy 16f/yy	.	.	.	.	.	.	.	.	.	.	.	.
.	.	.	16a/yy 16f/JJyy	.	.	.	.	.	.	.	.	.	.	.	.
8G\Lyy	.	.	16b/yy 16d/LLyy	.	4b/yy 4d/yy	.	4G\	fi-	4dd\	fi-	.	.	.	4g/yy	4b\yy
.	.	.	16b/yy 16d/yy	.	.	.	.	.	.	.	.	.	.	.	.
8G\yy	.	.	16b/yy 16d/yy	.	.	.	.	.	.	.	.	.	.	.	.
.	.	.	16b/yy 16d/yy	.	.	.	.	.	.	.	.	.	.	.	.
8G\yy	.	.	16b/yy 16d/yy	.	4gg/yy 4b/yy	.	4G\	-li-	4b\	-li-	.	.	.	4b/yy	4gg\yy
.	.	.	16b/yy 16d/yy	.	.	.	.	.	.	.	.	.	.	.	.
8G\Jyy	.	.	16b/yy 16d/yy	.	.	.	.	.	.	.	.	.	.	.	.
.	.	.	16b/yy 16d/JJyy	.	.	.	.	.	.	.	.	.	.	.	.
*Xtremolo	*	*	*Xtremolo	*	*	*	*	*	*	*	*	*	*	*	*
=80	=80	=80	=80	=80	=80	=80	=80	=80	=80	=80	=80	=80	=80	=80	=80
4C/yy	.	.	4cc/yy 4e/yy 4G/yy	.	4ee/yy 4cc/yy	.	4c\	-o	4cc\	-o	.	1ryyyy	1ryyyy	4cc\yy	4ee\yy
4C/yy	.	.	4cc/yy 4e/yy 4G/yy	.	4cc/yy 4e/yy 4G/yy	.	4r	.	4r	.	.	.	.	4cc\yy	4ee\yy
4C/yy	.	.	4cc/yy 4e/yy 4G/yy	.	4cc/yy 4e/yy 4G/yy	.	2r	.	2r	.	.	.	.	4cc\yy	4ee\yy
4ryy	.	.	4ryy	.	4ryy	.	.	.	.	.	.	.	.	4ryy	4ryy
=81	=81	=81	=81	=81	=81	=81	=81	=81	=81	=81	=81	=81	=81	=81	=81
*tremolo	*	*	*	*	*tremolo	*	*	*	*	*	*	*	*	*	*
.	.	.	.	.	8qqcc/yy	.	.	.	.	.	.	.	.	.	.
8C\Lyy	5_ 3_	.	16c/LLyy	.	16ccc\LLyy	.	2c\	Glo-	2ee\	Glo-	.	1ryyyy	1ryyyy	1cc\yy	1ee\yy
.	.	.	16e/yy	.	16ccc\yy	.	.	.	.	.	.	.	.	.	.
8C\yy	x x	.	16g/yy	.	16ccc\yy	.	.	.	.	.	.	.	.	.	.
.	.	.	16e/JJyy	.	16ccc\JJyy	.	.	.	.	.	.	.	.	.	.
*	*	*	*rep	*	*	*	*	*	*	*	*	*	*	*	*
8C\yy	x x	.	16c/LLyy	.	16gg\LLyy	.	.	.	.	.	.	.	.	.	.
.	.	.	16e/yy	.	16gg\yy	.	.	.	.	.	.	.	.	.	.
8C\Jyy	x x	.	16g/yy	.	16gg\yy	.	.	.	.	.	.	.	.	.	.
.	.	.	16e/JJyy	.	16gg\JJyy	.	.	.	.	.	.	.	.	.	.
*	*	*	*Xrep	*	*	*	*	*	*	*	*	*	*	*	*
*	*	*	*rep	*	*	*	*	*	*	*	*	*	*	*	*
8C\Lyy	x x	.	16c/LLyy	.	16ee\LLyy	.	4c\	-ri-	4ee\	-ri-	.	.	.	.	.
.	.	.	16e/yy	.	16ee\yy	.	.	.	.	.	.	.	.	.	.
8C\yy	x x	.	16g/yy	.	16ee\yy	.	.	.	.	.	.	.	.	.	.
.	.	.	16e/JJyy	.	16ee\JJyy	.	.	.	.	.	.	.	.	.	.
*	*	*	*Xrep	*	*	*	*	*	*	*	*	*	*	*	*
*	*	*	*rep	*	*	*	*	*	*	*	*	*	*	*	*
8C\yy	x x	.	16c/LLyy	.	16cc\LLyy	.	4c\	-a	4ee\	-a	.	.	.	.	.
.	.	.	16e/yy	.	16cc\yy	.	.	.	.	.	.	.	.	.	.
8C\Jyy	x x	.	16g/yy	.	16cc\yy	.	.	.	.	.	.	.	.	.	.
.	.	.	16e/JJyy	.	16cc\JJyy	.	.	.	.	.	.	.	.	.	.
*	*	*	*Xrep	*	*Xtremolo	*	*	*	*	*	*	*	*	*	*
!	!	!	!LO:LB:g=original	!	!LO:LB:g=original	!	!	!	!	!	!	!	!	!	!
=82	=82	=82	=82	=82	=82	=82	=82	=82	=82	=82	=82	=82	=82	=82	=82
8D\Lyy	4 3	.	16d/LLyy	.	8cc\Lyy	.	8c\	glo-	8ee\	glo-	.	1ryyyy	1ryyyy	8cc\Lyy	8ee\Lyy
.	.	.	16f/yy	.	.	.	.	.	.	.	.	.	.	.	.
8D\yy	.	.	16g/yy	.	8b\yy	.	8d\	-ri-	8ff\	-ri-	.	.	.	8dd\yy	8ff\yy
.	.	.	16f/JJyy	.	.	.	.	.	.	.	.	.	.	.	.
*	*	*	*rep	*	*	*	*	*	*	*	*	*	*	*	*
!	!	!	!	!	!	!	!LO:LB:g=original	!	!	!	!	!	!	!	!
8D\yy	.	.	16d/LLyy	.	8b\yy	.	8d\	-a	8ff\	-a	.	.	.	8dd\yy	8ff\yy
.	.	.	16f/yy	.	.	.	.	.	.	.	.	.	.	.	.
8D\Jyy	.	.	16g/yy	.	8b\Jyy	.	8d\	pa-	8ff\	pa-	.	.	.	8dd\Jyy	8ff\Jyy
.	.	.	16f/JJyy	.	.	.	.	.	.	.	.	.	.	.	.
*	*	*	*Xrep	*	*	*	*	*	*	*	*	*	*	*	*
*	*	*	*rep	*	*	*	*	*	*	*	*	*	*	*	*
8GG/Lyy	7 3	.	16d/LLyy	.	16b\LLyy	.	4d\	-tri	4ff\	-tri	.	.	.	4dd\yy	4ff\yy
.	.	.	16f/yy	.	16gg\yy	.	.	.	.	.	.	.	.	.	.
8GG/yy	.	.	16g/yy	.	16ff#X\yy	.	.	.	.	.	.	.	.	.	.
.	.	.	16f/JJyy	.	16gg\JJyy	.	.	.	.	.	.	.	.	.	.
*	*	*	*Xrep	*	*	*	*	*	*	*	*	*	*	*	*
*	*	*	*rep	*	*	*	*	*	*	*	*	*	*	*	*
8GG/yy	.	.	16d/LLyy	.	16aa\LLyy	.	4r	.	4r	.	.	.	.	4ryy	4ryy
.	.	.	16f/yy	.	16gg\yy	.	.	.	.	.	.	.	.	.	.
8GG/Jyy	.	.	16g/yy	.	16ff#X\yy	.	.	.	.	.	.	.	.	.	.
.	.	.	16f/JJyy	.	16gg\JJyy	.	.	.	.	.	.	.	.	.	.
*	*	*	*Xrep	*	*	*	*	*	*	*	*	*	*	*	*
!	!	!	!	!	!	!	!	!	!LO:LB:g=original	!	!	!	!	!	!
=83	=83	=83	=83	=83	=83	=83	=83	=83	=83	=83	=83	=83	=83	=83	=83
.	.	.	.	.	8qqcc/yy	.	.	.	.	.	.	.	.	.	.
*	*	*	*	*	*tremolo	*	*	*	*	*	*	*	*	*	*
8C\Lyy	5_ 3_	.	16c/LLyy	.	16ccc\LLyy	.	2c\	Glo-	2ee\	glo-	.	1ryyyy	1ryyyy	1cc\yy	1ee\yy
.	.	.	16e/yy	.	16ccc\yy	.	.	.	.	.	.	.	.	.	.
8C\yy	x x	.	16g/yy	.	16ccc\yy	.	.	.	.	.	.	.	.	.	.
.	.	.	16e/JJyy	.	16ccc\JJyy	.	.	.	.	.	.	.	.	.	.
*	*	*	*rep	*	*	*	*	*	*	*	*	*	*	*	*
8C\yy	x x	.	16c/LLyy	.	16gg\LLyy	.	.	.	.	.	.	.	.	.	.
.	.	.	16e/yy	.	16gg\yy	.	.	.	.	.	.	.	.	.	.
8C\Jyy	x x	.	16g/yy	.	16gg\yy	.	.	.	.	.	.	.	.	.	.
.	.	.	16e/JJyy	.	16gg\JJyy	.	.	.	.	.	.	.	.	.	.
*	*	*	*Xrep	*	*	*	*	*	*	*	*	*	*	*	*
*	*	*	*rep	*	*	*	*	*	*	*	*	*	*	*	*
8C\Lyy	x x	.	16c/LLyy	.	16ee\LLyy	.	4c\	-ri-	4ee\	-ri-	.	.	.	.	.
.	.	.	16e/yy	.	16ee\yy	.	.	.	.	.	.	.	.	.	.
8C\yy	x x	.	16g/yy	.	16ee\yy	.	.	.	.	.	.	.	.	.	.
.	.	.	16e/JJyy	.	16ee\JJyy	.	.	.	.	.	.	.	.	.	.
*	*	*	*Xrep	*	*	*	*	*	*	*	*	*	*	*	*
*	*	*	*rep	*	*	*	*	*	*	*	*	*	*	*	*
8C\yy	x x	.	16c/LLyy	.	16cc\LLyy	.	8c\	-a	8ee\	-a	.	.	.	.	.
.	.	.	16e/yy	.	16cc\yy	.	.	.	.	.	.	.	.	.	.
8C\Jyy	x x	.	16g/yy	.	16cc\yy	.	8c\	glo-	8ee\	glo-	.	.	.	.	.
.	.	.	16e/JJyy	.	16cc\JJyy	.	.	.	.	.	.	.	.	.	.
*	*	*	*Xrep	*	*Xtremolo	*	*	*	*	*	*	*	*	*	*
=84	=84	=84	=84	=84	=84	=84	=84	=84	=84	=84	=84	=84	=84	=84	=84
8D\Lyy	4 3	.	16d/LLyy	.	8cc\Lyy	.	8c\	-ri-	8ee\	-ri-	.	1ryyyy	1ryyyy	8cc\Lyy	8ee\Lyy
.	.	.	16f/yy	.	.	.	.	.	.	.	.	.	.	.	.
8D\yy	.	.	16g/yy	.	8b\yy	.	8d\	-a	8ff\	-a	.	.	.	8dd\yy	8ff\yy
.	.	.	16f/JJyy	.	.	.	.	.	.	.	.	.	.	.	.
*	*	*	*rep	*	*	*	*	*	*	*	*	*	*	*	*
8D\yy	.	.	16d/LLyy	.	8b\yy	.	8d\	fi-	8ff\	fi-	.	.	.	8dd\yy	8ff\yy
.	.	.	16f/yy	.	.	.	.	.	.	.	.	.	.	.	.
8D\Jyy	.	.	16g/yy	.	8b\Jyy	.	8d\	-li-	8ff\	-li-	.	.	.	8dd\Jyy	8ff\Jyy
.	.	.	16f/JJyy	.	.	.	.	.	.	.	.	.	.	.	.
*	*	*	*Xrep	*	*	*	*	*	*	*	*	*	*	*	*
*	*	*	*rep	*	*	*	*	*	*	*	*	*	*	*	*
8GG/Lyy	7 3	.	16d/LLyy	.	16b\LLyy	.	4d\	-o	4ff\	-o	.	.	.	4dd\yy	4ff\yy
.	.	.	16f/yy	.	16gg\yy	.	.	.	.	.	.	.	.	.	.
8GG/yy	.	.	16g/yy	.	16ff#X\yy	.	.	.	.	.	.	.	.	.	.
.	.	.	16f/JJyy	.	16gg\JJyy	.	.	.	.	.	.	.	.	.	.
*	*	*	*Xrep	*	*	*	*	*	*	*	*	*	*	*	*
*	*	*	*rep	*	*	*	*	*	*	*	*	*	*	*	*
8GG/yy	.	.	16d/LLyy	.	16aa\LLyy	.	4r	.	4r	.	.	.	.	4ryy	4ryy
.	.	.	16f/yy	.	16gg\yy	.	.	.	.	.	.	.	.	.	.
8GG/Jyy	.	.	16g/yy	.	16ff#X\yy	.	.	.	.	.	.	.	.	.	.
.	.	.	16f/JJyy	.	16gg\JJyy	.	.	.	.	.	.	.	.	.	.
*	*	*	*Xrep	*	*	*	*	*	*	*	*	*	*	*	*
=85	=85	=85	=85	=85	=85	=85	=85	=85	=85	=85	=85	=85	=85	=85	=85
*	*	*	*tremolo	*	*	*	*	*	*	*	*	*	*	*	*
8C\Lyy	.	.	16cc/ 16e/LLyy	.	8ee\Lyy	.	2c\	Glo-	2ee\	glo-	.	1ryyyy	1ryyyy	2cc\yy	2ee\yy
.	.	.	16cc/ 16e/yy	.	.	.	.	.	.	.	.	.	.	.	.
8C\yy	.	.	16cc/ 16e/yy	.	8cc\Jyy	.	.	.	.	.	.	.	.	.	.
.	.	.	16cc/ 16e/yy	.	.	.	.	.	.	.	.	.	.	.	.
8C\yy	.	.	16cc/ 16e/yy	.	8ryy	.	.	.	.	.	.	.	.	.	.
.	.	.	16cc/ 16e/yy	.	.	.	.	.	.	.	.	.	.	.	.
8C\Jyy	.	.	16cc/ 16e/yy	.	8cc\yy	.	.	.	.	.	.	.	.	.	.
.	.	.	16cc/ 16e/JJyy	.	.	.	.	.	.	.	.	.	.	.	.
8D\Lyy	.	.	16cc/ 16f/LLyy	.	8ff\Lyy	.	2B\	-ri-	2ff\	-ri-	.	.	.	2cc\yy	2ff\yy
.	.	.	16cc/ 16f/yy	.	.	.	.	.	.	.	.	.	.	.	.
8D\yy	.	.	16cc/ 16f/yy	.	8cc\Jyy	.	.	.	.	.	.	.	.	.	.
.	.	.	16cc/ 16f/yy	.	.	.	.	.	.	.	.	.	.	.	.
8D\yy	.	.	16cc/ 16f/yy	.	8ryy	.	.	.	.	.	.	.	.	.	.
.	.	.	16cc/ 16f/yy	.	.	.	.	.	.	.	.	.	.	.	.
8D\Jyy	.	.	16cc/ 16f/yy	.	8cc\yy	.	.	.	.	.	.	.	.	.	.
.	.	.	16cc/ 16f/JJyy	.	.	.	.	.	.	.	.	.	.	.	.
=86	=86	=86	=86	=86	=86	=86	=86	=86	=86	=86	=86	=86	=86	=86	=86
8E\Lyy	.	.	16cc/ 16g/LLyy	.	8gg\Lyy	.	4c\	-a	4gg\	-a	.	1ryyyy	1ryyyy	2cc\yy	2gg\yy
.	.	.	16cc/ 16g/yy	.	.	.	.	.	.	.	.	.	.	.	.
8E\yy	.	.	16cc/ 16g/yy	.	8cc\Jyy	.	.	.	.	.	.	.	.	.	.
.	.	.	16cc/ 16g/yy	.	.	.	.	.	.	.	.	.	.	.	.
8E\yy	.	.	16cc/ 16g/yy	.	8ryy	.	4r	.	4r	.	.	.	.	.	.
.	.	.	16cc/ 16g/yy	.	.	.	.	.	.	.	.	.	.	.	.
8E\Jyy	.	.	16cc/ 16g/yy	.	8cc\yy	.	.	.	.	.	.	.	.	.	.
.	.	.	16cc/ 16g/JJyy	.	.	.	.	.	.	.	.	.	.	.	.
8F\Lyy	.	.	16cc/ 16a/LLyy	.	8aa\Lyy	.	2r	.	2r	.	.	.	.	2cc\yy	2aa\yy
.	.	.	16cc/ 16a/yy	.	.	.	.	.	.	.	.	.	.	.	.
8F\yy	.	.	16cc/ 16a/yy	.	8cc\Jyy	.	.	.	.	.	.	.	.	.	.
.	.	.	16cc/ 16a/yy	.	.	.	.	.	.	.	.	.	.	.	.
8F\yy	.	.	16cc/ 16a/yy	.	8ryy	.	.	.	.	.	.	.	.	.	.
.	.	.	16cc/ 16a/yy	.	.	.	.	.	.	.	.	.	.	.	.
8F\Jyy	.	.	16cc/ 16a/yy	.	8cc\yy	.	.	.	.	.	.	.	.	.	.
.	.	.	16cc/ 16a/JJyy	.	.	.	.	.	.	.	.	.	.	.	.
!	!	!	!	!	!	!	!	!	!	!	!	!	!	!	!LO:LB:g=original
!LO:LB:g=original	!	!	!	!	!	!	!	!	!	!	!	!	!	!LO:LB:g=original	!
=87	=87	=87	=87	=87	=87	=87	=87	=87	=87	=87	=87	=87	=87	=87	=87
*	*	*	*	*	*tremolo	*	*	*	*	*	*	*	*	*	*
8F#X\Lyy	5 3	.	16cc\LLyy	.	16aa\LLyy	.	4c\	et	4aa\	et	.	1ryyyy	1ryyyy	4cc\yy	4aa\yy
.	.	.	16cc\yy	.	16aa\yy	.	.	.	.	.	.	.	.	.	.
8F#\yy	.	.	16cc\yy	.	16aa\yy	.	.	.	.	.	.	.	.	.	.
.	.	.	16cc\JJyy	.	16aa\JJyy	.	.	.	.	.	.	.	.	.	.
8F#\yy	.	.	16a/LLyy	.	16ff#X\LLyy	.	8c\	spi-	8ff#X\	spi-	.	.	.	4a/yy	4ff#X\yy
.	.	.	16a/yy	.	16ff#X\yy	.	.	.	.	.	.	.	.	.	.
8F#\Jyy	.	.	16a/yy	.	16ff#X\yy	.	8c\	-ri-	8ff#\	-ri-	.	.	.	.	.
.	.	.	16a/JJyy	.	16ff#X\JJyy	.	.	.	.	.	.	.	.	.	.
8F#\Lyy	.	.	16f#X/LLyy	.	16dd\LLyy	.	4c\	-tu-	4dd\	-tu-	.	.	.	4f#X/yy	4dd\yy
.	.	.	16f#X/yy	.	16dd\yy	.	.	.	.	.	.	.	.	.	.
8F#\yy	.	.	16f#X/yy	.	16dd\yy	.	.	.	.	.	.	.	.	.	.
.	.	.	16f#X/JJyy	.	16dd\JJyy	.	.	.	.	.	.	.	.	.	.
8F#\yy	.	.	16d/LLyy	.	16cc\LLyy	.	4A\	-i	4cc\	-i	.	.	.	4d/yy	4cc\yy
.	.	.	16d/yy	.	16cc\yy	.	.	.	.	.	.	.	.	.	.
8F#\Jyy	.	.	16d/yy	.	16cc\yy	.	.	.	.	.	.	.	.	.	.
.	.	.	16d/JJyy	.	16cc\JJyy	.	.	.	.	.	.	.	.	.	.
*	*	*	*Xtremolo	*	*Xtremolo	*	*	*	*	*	*	*	*	*	*
=88	=88	=88	=88	=88	=88	=88	=88	=88	=88	=88	=88	=88	=88	=88	=88
8G\Lyy	.	.	16G/LLyy	.	8cc\Lyy	.	4G\	San-	4b\	san-	.	1ryyyy	1ryyyy	8a/Lyy	8cc\Lyy
.	.	.	16d/yy	.	.	.	.	.	.	.	.	.	.	.	.
8G\yy	.	.	16B/yy	.	8b\yy	.	.	.	.	.	.	.	.	8g/yy	8b\yy
.	.	.	16d/JJyy	.	.	.	.	.	.	.	.	.	.	.	.
*	*	*	*rep	*	*	*	*	*	*	*	*	*	*	*	*
8G\yy	.	.	16G/LLyy	.	8b\yy	.	4G\	-cto	4b\	-cto	.	.	.	8g/yy	8b\yy
.	.	.	16d/yy	.	.	.	.	.	.	.	.	.	.	.	.
8G\Jyy	.	.	16B/yy	.	8b\Jyy	.	.	.	.	.	.	.	.	8g/Jyy	8b\Jyy
.	.	.	16d/JJyy	.	.	.	.	.	.	.	.	.	.	.	.
*	*	*	*Xrep	*	*	*	*	*	*	*	*	*	*	*	*
*	*	*	*rep	*	*	*	*	*	*	*	*	*	*	*	*
!	!	!	!	!	!LO:LB:g=original	!	!	!	!	!	!	!	!	!	!
8G\Lyy	.	.	16G/LLyy	.	16b\LLyy	.	4r	.	4r	.	.	.	.	4g/yy	4b\yy
.	.	.	16d/yy	.	16gg\yy	.	.	.	.	.	.	.	.	.	.
8G\yy	.	.	16B/yy	.	16ff#X\yy	.	.	.	.	.	.	.	.	.	.
.	.	.	16d/JJyy	.	16gg\JJyy	.	.	.	.	.	.	.	.	.	.
*	*	*	*Xrep	*	*	*	*	*	*	*	*	*	*	*	*
*	*	*	*rep	*	*	*	*	*	*	*	*	*	*	*	*
8G\yy	.	.	16G/LLyy	.	16aa\LLyy	.	4G\	et	4gg\	et	.	.	.	4ryy	4ryy
.	.	.	16d/yy	.	16gg\yy	.	.	.	.	.	.	.	.	.	.
8G\Jyy	.	.	16B/yy	.	16ff#\yy	.	.	.	.	.	.	.	.	.	.
.	.	.	16d/JJyy	.	16gg\JJyy	.	.	.	.	.	.	.	.	.	.
*	*	*	*Xrep	*	*	*	*	*	*	*	*	*	*	*	*
!	!	!	!	!	!	!	!LO:LB:g=original	!	!	!	!	!	!	!	!
=89	=89	=89	=89	=89	=89	=89	=89	=89	=89	=89	=89	=89	=89	=89	=89
*	*	*	*	*	*tremolo	*	*	*	*	*	*	*	*	*	*
8F#X\Lyy	.	.	16A/LLyy	.	16aa\LLyy	.	4c\	Spi-	4aa\	spi-	.	1ryyyy	1ryyyy	4cc\yy	4aa\yy
.	.	.	16d/yy	.	16aa\yy	.	.	.	.	.	.	.	.	.	.
8F#\yy	.	.	16c/yy	.	16aa\yy	.	.	.	.	.	.	.	.	.	.
.	.	.	16d/JJyy	.	16aa\JJyy	.	.	.	.	.	.	.	.	.	.
*	*	*	*rep	*	*	*	*	*	*	*	*	*	*	*	*
8F#\yy	.	.	16A/LLyy	.	16ff#X\LLyy	.	4c\	-ri-	4ff#X\	-ri-	.	.	.	4a\yy	4ff#X\yy
.	.	.	16d/yy	.	16ff#X\yy	.	.	.	.	.	.	.	.	.	.
8F#\Jyy	.	.	16c/yy	.	16ff#X\yy	.	.	.	.	.	.	.	.	.	.
.	.	.	16d/JJyy	.	16ff#X\JJyy	.	.	.	.	.	.	.	.	.	.
*	*	*	*Xrep	*	*	*	*	*	*	*	*	*	*	*	*
*	*	*	*rep	*	*	*	*	*	*	*	*	*	*	*	*
8F#\Lyy	.	.	16A/LLyy	.	16dd\LLyy	.	4c\	-tu-	4dd\	-tu-	.	.	.	4f#X/yy	4dd\yy
.	.	.	16d/yy	.	16dd\yy	.	.	.	.	.	.	.	.	.	.
8F#\yy	.	.	16c/yy	.	16dd\yy	.	.	.	.	.	.	.	.	.	.
.	.	.	16d/JJyy	.	16dd\JJyy	.	.	.	.	.	.	.	.	.	.
*	*	*	*Xrep	*	*	*	*	*	*	*	*	*	*	*	*
*	*	*	*rep	*	*	*	*	*	*	*	*	*	*	*	*
8F#\yy	.	.	16A/LLyy	.	16cc\LLyy	.	4A\	-i	4cc\	-i	.	.	.	4d/yy	4cc\yy
.	.	.	16d/yy	.	16cc\yy	.	.	.	.	.	.	.	.	.	.
8F#\Jyy	.	.	16c/yy	.	16cc\yy	.	.	.	.	.	.	.	.	.	.
.	.	.	16d/JJyy	.	16cc\JJyy	.	.	.	.	.	.	.	.	.	.
*Xtremolo	*	*	*Xrep	*	*Xtremolo	*	*	*	*	*	*	*	*	*	*
!	!	!	!	!	!	!	!	!	!LO:LB:g=original	!	!	!	!	!	!
=90	=90	=90	=90	=90	=90	=90	=90	=90	=90	=90	=90	=90	=90	=90	=90
!LO:TX:t=P:problem=mixed beam	!	!	!	!	!	!	!	!	!	!	!	!	!	!	!
8G\Lyy	.	.	16B/LLyy	.	16b\LLyy	.	4G\	San-	4b\	san-	.	1ryyyy	1ryyyy	8g/Lyy	8b\Lyy
.	.	.	16B/yy	.	16b\yy	.	.	.	.	.	.	.	.	.	.
8GG/yy	.	.	16G/yy	.	16g\yy	.	.	.	.	.	.	.	.	8g/yy	8g\yy
.	.	.	16G/JJyy	.	16g\JJyy	.	.	.	.	.	.	.	.	.	.
!	!	!	!LO:LB:g=original	!	!	!	!	!	!	!	!	!	!	!	!
8AA/yy	.	.	16A/LLyy	.	16a\LLyy	.	4G\	-cto	4b\	-cto	.	.	.	8a/yy	8a\yy
.	.	.	16A/yy	.	16a\yy	.	.	.	.	.	.	.	.	.	.
8BB/Jyy	.	.	16B/yy	.	16b\yy	.	.	.	.	.	.	.	.	8b/Jyy	8b\Jyy
.	.	.	16B/JJyy	.	16b\JJyy	.	.	.	.	.	.	.	.	.	.
8C\Lyy	.	.	16c/LLyy	.	16cc\LLyy	.	4r	.	4r	.	.	.	.	8cc\Lyy	8cc\Lyy
.	.	.	16c/yy	.	16cc\yy	.	.	.	.	.	.	.	.	.	.
8D\yy	.	.	16d/yy	.	16dd\yy	.	.	.	.	.	.	.	.	8dd\yy	8dd\yy
.	.	.	16d/JJyy	.	16dd\JJyy	.	.	.	.	.	.	.	.	.	.
8E\yy	.	.	16e/LLyy	.	16ee\LLyy	.	4G\	et	4dd\	et	.	.	.	8ee\yy	8ee\yy
.	.	.	16e/yy	.	16ee\yy	.	.	.	.	.	.	.	.	.	.
8F#X\Jyy	.	.	16f#X/yy	.	16ff#X\yy	.	.	.	.	.	.	.	.	8ff#X\Jyy	8ff#X\Jyy
.	.	.	16f#/JJyy	.	16ff#\JJyy	.	.	.	.	.	.	.	.	.	.
=91	=91	=91	=91	=91	=91	=91	=91	=91	=91	=91	=91	=91	=91	=91	=91
*	*	*	*tremolo	*	*tremolo	*	*	*	*	*	*	*	*	*	*
4G\yy	.	.	16g/LLyy	.	16gg\LLyy	.	4G\	Spi-	4gg\	spi-	.	1ryyyy	1ryyyy	4gg\yy	4gg\yy
.	.	.	16g/yy	.	16gg\yy	.	.	.	.	.	.	.	.	.	.
.	.	.	16g/yy	.	16gg\yy	.	.	.	.	.	.	.	.	.	.
.	.	.	16g/JJyy	.	16gg\JJyy	.	.	.	.	.	.	.	.	.	.
4E\yy	.	.	16e/LLyy	.	16ee\LLyy	.	4e\	-ri-	4ee\	-ri-	.	.	.	4ee\yy	4ee\yy
.	.	.	16e/yy	.	16ee\yy	.	.	.	.	.	.	.	.	.	.
.	.	.	16e/yy	.	16ee\yy	.	.	.	.	.	.	.	.	.	.
.	.	.	16e/JJyy	.	16ee\JJyy	.	.	.	.	.	.	.	.	.	.
4BB/yy	.	.	16B/LLyy	.	16b\LLyy	.	4B\	-tu-	4b\	-tu-	.	.	.	4b\yy	4b\yy
.	.	.	16B/yy	.	16b\yy	.	.	.	.	.	.	.	.	.	.
.	.	.	16B/yy	.	16b\yy	.	.	.	.	.	.	.	.	.	.
.	.	.	16B/JJyy	.	16b\JJyy	.	.	.	.	.	.	.	.	.	.
4C#X/yy	.	.	16c#X/LLyy	.	16cc#X\LLyy	.	4c#X\	-i	4cc#X\	-i	.	.	.	4cc#X\yy	4cc#X\yy
.	.	.	16c#X/yy	.	16cc#X\yy	.	.	.	.	.	.	.	.	.	.
.	.	.	16c#X/yy	.	16cc#X\yy	.	.	.	.	.	.	.	.	.	.
.	.	.	16c#X/JJyy	.	16cc#X\JJyy	.	.	.	.	.	.	.	.	.	.
*	*	*	*Xtremolo	*	*Xtremolo	*	*	*	*	*	*	*	*	*	*
=92	=92	=92	=92	=92	=92	=92	=92	=92	=92	=92	=92	=92	=92	=92	=92
4D\yy	.	.	4d/yy	.	4dd/ 4f#X/yy	.	4d\	San-	4dd\	san-	.	1ryyyy	1ryyyy	4dd\yy	4dd\yy
4D\yy	.	.	4f#X/ 4A/yy	.	4dd/ 4f#/yy	.	4D/	-cto	4dd\	-cto	.	.	.	4dd\yy	4ff#X\yy
4D\yy	.	.	4f#/ 4A/yy	.	4dd/ 4f#/yy	.	2r	.	2r	.	.	.	.	4dd\yy	4dd\yy
4ryy	.	.	4ryy	.	4ryy	.	.	.	.	.	.	.	.	4ryy	4ryy
=93	=93	=93	=93	=93	=93	=93	=93	=93	=93	=93	=93	=93	=93	=93	=93
!	!	!	!	!	!	!	!	!	!LO:TX:i:t=Solo	!	!	!	!	!	!
!	!	!	!	!	!	!LO:DY:b:t=pp&colon;	!	!	!	!	!	!	!	!	!
!	!	!LO:DY:a:t=p.	!	!	!	!	!	!	!	!	!	!	!	!	!
4G\yy	.	p	8ryy	.	8ryy	pp	1r	.	2dd\	Glo-	.	1ryyyy	1ryyyy	1ryy	1ryy
!	!	!	!	!LO:DY:b:t=ppp&colon;	!	!	!	!	!	!	!	!	!	!	!
.	.	.	8g/Lyy	ppp	8b/L 8d/yy	.	.	.	.	.	.	.	.	.	.
4ryy	.	.	8g/yy	.	8b/ 8d/yy	.	.	.	.	.	.	.	.	.	.
.	.	.	8g/Jyy	.	8b/J 8d/yy	.	.	.	.	.	.	.	.	.	.
4G\yy	.	.	8ryy	.	8ryy	.	.	.	8dd\L	.	.	.	.	.	.
.	.	.	8g/Lyy	.	8b/L 8d/yy	.	.	.	8ee\J	.	.	.	.	.	.
4ryy	.	.	8g/yy	.	8b/ 8d/yy	.	.	.	8ff#X\	-ri-	.	.	.	.	.
.	.	.	8g/Jyy	.	8b/J 8d/yy	.	.	.	8gg\	-a	.	.	.	.	.
=94	=94	=94	=94	=94	=94	=94	=94	=94	=94	=94	=94	=94	=94	=94	=94
4A\yy	6\	.	8ryy	.	8ryy	.	1r	.	(4gg\	pa-	.	1ryyyy	1ryyyy	1ryy	1ryy
.	.	.	8a/Lyy	.	8cc/L 8d/yy	.	.	.	.	.	.	.	.	.	.
4ryy	.	.	8a/yy	.	8cc/ 8d/yy	.	.	.	4ff#X\)	.	.	.	.	.	.
.	.	.	8a/Jyy	.	8cc/J 8d/yy	.	.	.	.	.	.	.	.	.	.
!	!	!	!	!	!LO:LB:g=original	!	!	!	!	!	!	!	!	!	!
4A\yy	.	.	8ryy	.	8ryy	.	.	.	4.ff#\	-tri	.	.	.	.	.
.	.	.	8a/Lyy	.	8cc/L 8d/yy	.	.	.	.	.	.	.	.	.	.
4ryy	.	.	8a/yy	.	8cc/ 8d/yy	.	.	.	.	.	.	.	.	.	.
.	.	.	8a/Jyy	.	8cc/J 8d/yy	.	.	.	8ee\	.	.	.	.	.	.
=95	=95	=95	=95	=95	=95	=95	=95	=95	=95	=95	=95	=95	=95	=95	=95
4F#X\yy	6	.	8ryy	.	8ryy	.	1r	.	2dd\	glo-	.	1ryyyy	1ryyyy	1ryy	1ryy
.	.	.	8a/Lyy	.	8cc/L 8d/yy	.	.	.	.	.	.	.	.	.	.
4ryy	.	.	8a/yy	.	8cc/ 8d/yy	.	.	.	.	.	.	.	.	.	.
.	.	.	8a/Jyy	.	8cc/J 8d/yy	.	.	.	.	.	.	.	.	.	.
4F#\yy	5	.	8ryy	.	8ryy	.	.	.	8dd\L	.	.	.	.	.	.
.	.	.	8a/Lyy	.	8cc/L 8d/yy	.	.	.	16cc\L	.	.	.	.	.	.
.	.	.	.	.	.	.	.	.	16dd\JJ	.	.	.	.	.	.
4ryy	.	.	8a/yy	.	8cc/ 8d/yy	.	.	.	8ee\	.	.	.	.	.	.
.	.	.	8a/Jyy	.	8cc/J 8d/yy	.	.	.	16dd\	-ri-	.	.	.	.	.
.	.	.	.	.	.	.	.	.	16cc\	-a	.	.	.	.	.
=96	=96	=96	=96	=96	=96	=96	=96	=96	=96	=96	=96	=96	=96	=96	=96
4G\yy	.	.	8ryy	.	8ryy	.	1r	.	4.cc\	fi-	.	1ryyyy	1ryyyy	1ryy	1ryy
.	.	.	8g/Lyy	.	8b/L 8d/yy	.	.	.	.	.	.	.	.	.	.
4ryy	.	.	8g/yy	.	8b/ 8d/yy	.	.	.	.	.	.	.	.	.	.
.	.	.	8g/Jyy	.	8b/J 8d/yy	.	.	.	8b\	-li-	.	.	.	.	.
4G\yy	.	.	8ryy	.	8ryy	.	.	.	4b\	-o	.	.	.	.	.
.	.	.	8d/Lyy	.	8b/Lyy	.	.	.	.	.	.	.	.	.	.
4ryy	.	.	8c/yy	.	8a/yy	.	.	.	4r	.	.	.	.	.	.
.	.	.	8B/Jyy	.	8g/Jyy	.	.	.	.	.	.	.	.	.	.
!	!	!	!	!	!	!	!	!	!LO:LB:g=original	!	!	!	!	!	!
=97	=97	=97	=97	=97	=97	=97	=97	=97	=97	=97	=97	=97	=97	=97	=97
4BB/yy	6	.	8ryy	.	8ryy	.	1r	.	(4dd\	Et	.	1ryyyy	1ryyyy	1ryy	1ryy
.	.	.	8d/Lyy	.	8g/Lyy	.	.	.	.	.	.	.	.	.	.
4ryy	.	.	8d/yy	.	8g/yy	.	.	.	4b\)	.	.	.	.	.	.
.	.	.	8d/Jyy	.	8g/Jyy	.	.	.	.	.	.	.	.	.	.
!	!	!	!LO:LB:g=original	!	!	!	!	!	!	!	!	!	!	!	!
4BB/yy	.	.	8ryy	.	8ryy	.	.	.	(4a\	spi-	.	.	.	.	.
.	.	.	8d/Lyy	.	8g/Lyy	.	.	.	.	.	.	.	.	.	.
4ryy	.	.	8d/yy	.	8g#X/yy	.	.	.	4g#X\)	.	.	.	.	.	.
.	.	.	8d/Jyy	.	8g#/Jyy	.	.	.	.	.	.	.	.	.	.
=98	=98	=98	=98	=98	=98	=98	=98	=98	=98	=98	=98	=98	=98	=98	=98
4C/yy	6	.	8ryy	.	8ryy	.	1r	.	(4.a\	-ri-	.	1ryyyy	1ryyyy	1ryy	1ryy
.	.	.	8e/Lyy	.	8a/Lyy	.	.	.	.	.	.	.	.	.	.
4ryy	.	.	8e/yy	.	8a/yy	.	.	.	.	.	.	.	.	.	.
.	.	.	8e/Jyy	.	8a/Jyy	.	.	.	8b\)	.	.	.	.	.	.
4C/yy	.	.	8ryy	.	8ryy	.	.	.	4.cc\	-tu-	.	.	.	.	.
.	.	.	8e/Lyy	.	8a/Lyy	.	.	.	.	.	.	.	.	.	.
4ryy	.	.	8e/yy	.	8a/yy	.	.	.	.	.	.	.	.	.	.
.	.	.	8e/Jyy	.	8a/Jyy	.	.	.	8dd\	-i	.	.	.	.	.
=99	=99	=99	=99	=99	=99	=99	=99	=99	=99	=99	=99	=99	=99	=99	=99
4C/yy	.	.	8ryy	.	8ryy	.	1r	.	(4ee\	San-	.	1ryyyy	1ryyyy	1ryy	1ryy
.	.	.	8e/Lyy	.	8a/Lyy	.	.	.	.	.	.	.	.	.	.
4ryy	.	.	8e/yy	.	8a/yy	.	.	.	4cc\	.	.	.	.	.	.
.	.	.	8e/Jyy	.	8a/Jyy	.	.	.	.	.	.	.	.	.	.
4C#X/yy	.	.	8ryy	.	8ryy	.	.	.	4a\	.	.	.	.	.	.
.	.	.	8e/Lyy	.	8gn/Lyy	.	.	.	.	.	.	.	.	.	.
4ryy	.	.	8e/yy	.	8g/yy	.	.	.	4gn\)	.	.	.	.	.	.
.	.	.	8e/Jyy	.	8g/Jyy	.	.	.	.	.	.	.	.	.	.
!LO:LB:g=original	!	!	!	!	!	!	!	!	!	!	!	!	!	!	!
=100	=100	=100	=100	=100	=100	=100	=100	=100	=100	=100	=100	=100	=100	=100	=100
!	!	!	!	!	!	!LO:DY:a:t=for	!	!	!	!	!	!	!	!	!
!	!	!	!	!LO:DY:b:t=for.	!	!	!	!	!	!	!	!	!	!	!
4D\yy	.	.	16f#X/LLyy	f	16f#X/LLyy	f	1r	.	4f/	-cto	.	1ryyyy	1ryyyy	1ryy	1ryy
.	.	.	16d/yy	.	16d/yy	.	.	.	.	.	.	.	.	.	.
.	.	.	16e/yy	.	16e/yy	.	.	.	.	.	.	.	.	.	.
.	.	.	16f#/JJyy	.	16f#/JJyy	.	.	.	.	.	.	.	.	.	.
!	!	!	!	!	!LO:LB:g=original	!	!	!	!	!	!	!	!	!	!
4D\yy	.	.	16g/LLyy	.	16g/LLyy	.	.	.	4r	.	.	.	.	.	.
.	.	.	16a/yy	.	16a/yy	.	.	.	.	.	.	.	.	.	.
.	.	.	16b/yy	.	16b/yy	.	.	.	.	.	.	.	.	.	.
.	.	.	16cc#X/JJyy	.	16cc#X/JJyy	.	.	.	.	.	.	.	.	.	.
4D\yy	.	.	8dd\Lyy	.	8dd/Lyy	.	.	.	2r	.	.	.	.	.	.
.	.	.	8ccn\yy	.	8ccn/yy	.	.	.	.	.	.	.	.	.	.
4ryy	.	.	8a\yy	.	8a/yy	.	.	.	.	.	.	.	.	.	.
.	.	.	8f#\Jyy	.	8f#X/Jyy	.	.	.	.	.	.	.	.	.	.
=101	=101	=101	=101	=101	=101	=101	=101	=101	=101	=101	=101	=101	=101	=101	=101
!	!	!	!	!LO:DY:b:t=p.	!	!	!	!	!	!	!	!	!	!	!
4G\yy	.	.	8ryy	p	8ryy	.	1r	.	2.g\	Glo-	.	1ryyyy	1ryyyy	1ryy	1ryy
!	!	!	!	!	!	!LO:DY:b:t=p&colon;	!	!	!	!	!	!	!	!	!
.	.	.	8d/L 8B/yy	.	8g/Lyy	p	.	.	.	.	.	.	.	.	.
4ryy	.	.	8d/ 8B/yy	.	8g/yy	.	.	.	.	.	.	.	.	.	.
.	.	.	8d/J 8B/yy	.	8g/Jyy	.	.	.	.	.	.	.	.	.	.
4G\yy	.	.	8ryy	.	8ryy	.	.	.	.	.	.	.	.	.	.
.	.	.	8d/L 8B/yy	.	8g/Lyy	.	.	.	.	.	.	.	.	.	.
4ryy	.	.	8d/ 8B/yy	.	8g/yy	.	.	.	8a\	-ri-	.	.	.	.	.
.	.	.	8d/J 8B/yy	.	8g/Jyy	.	.	.	8b\	-a	.	.	.	.	.
=102	=102	=102	=102	=102	=102	=102	=102	=102	=102	=102	=102	=102	=102	=102	=102
4A\yy	.	.	8ryy	.	8ryy	.	1r	.	8b\L	pa-	.	1ryyyy	1ryyyy	1ryy	1ryy
.	.	.	8d/L 8c/yy	.	8f#X/Lyy	.	.	.	8a\J	.	.	.	.	.	.
4ryy	.	.	8d/ 8c/yy	.	8f#/yy	.	.	.	4a\	-tri	.	.	.	.	.
.	.	.	8d/J 8c/yy	.	8f#/Jyy	.	.	.	.	.	.	.	.	.	.
4A\yy	.	.	8ryy	.	8ryy	.	.	.	8r	.	.	.	.	.	.
.	.	.	8d/L 8c/yy	.	8f#/Lyy	.	.	.	8a\	glo-	.	.	.	.	.
4ryy	.	.	8d/ 8c/yy	.	8f#/yy	.	.	.	8b\	-ri-	.	.	.	.	.
.	.	.	8d/J 8c/yy	.	8f#/Jyy	.	.	.	8cc\	-a	.	.	.	.	.
=103	=103	=103	=103	=103	=103	=103	=103	=103	=103	=103	=103	=103	=103	=103	=103
4F#X\yy	.	.	8ryy	.	8ryy	.	1r	.	2.dd\	fi-	.	1ryyyy	1ryyyy	1ryy	1ryy
.	.	.	8a/ 8f#X/Lyy	.	8cc/L 8d/yy	.	.	.	.	.	.	.	.	.	.
4ryy	.	.	8a/ 8f#/yy	.	8cc/ 8d/yy	.	.	.	.	.	.	.	.	.	.
.	.	.	8a/ 8f#/Jyy	.	8cc/J 8d/yy	.	.	.	.	.	.	.	.	.	.
4F#\yy	.	.	8ryy	.	8ryy	.	.	.	.	.	.	.	.	.	.
.	.	.	8f#/L 8d/yy	.	8cc/L 8d/yy	.	.	.	.	.	.	.	.	.	.
4ryy	.	.	8f#/ 8d/yy	.	8cc/ 8d/yy	.	.	.	16dd\LL	.	.	.	.	.	.
.	.	.	.	.	.	.	.	.	16cc\	.	.	.	.	.	.
.	.	.	8f#/J 8d/yy	.	8cc/J 8d/yy	.	.	.	16b\	.	.	.	.	.	.
.	.	.	.	.	.	.	.	.	16cc\JJ	-li-	.	.	.	.	.
=104	=104	=104	=104	=104	=104	=104	=104	=104	=104	=104	=104	=104	=104	=104	=104
!	!	!	!	!LO:DY:a:t=for	!	!	!	!	!	!	!	!	!	!	!
4G\yy	.	.	16b\LLyy	f	16b\LLyy	.	1r	.	4b\	-o	.	1ryyyy	1ryyyy	1ryy	1ryy
!	!	!	!	!	!	!LO:DY:a:t=for	!	!	!	!	!	!	!	!	!
.	.	.	16g\yy	.	16g\yy	f	.	.	.	.	.	.	.	.	.
.	.	.	16a\yy	.	16a\yy	.	.	.	.	.	.	.	.	.	.
.	.	.	16b\JJyy	.	16b\JJyy	.	.	.	.	.	.	.	.	.	.
!	!	!	!LO:LB:g=original	!	!	!	!	!	!	!	!	!	!	!	!
4GG/yy	.	.	16cc\LLyy	.	16cc\LLyy	.	.	.	4r	.	.	.	.	.	.
.	.	.	16dd\yy	.	16dd\yy	.	.	.	.	.	.	.	.	.	.
.	.	.	16ee\yy	.	16ee\yy	.	.	.	.	.	.	.	.	.	.
.	.	.	16ff#X\JJyy	.	16ff#X\JJyy	.	.	.	.	.	.	.	.	.	.
4G\yy	.	.	8gg\Lyy	.	8gg\Lyy	.	.	.	2r	.	.	.	.	.	.
.	.	.	8ffn\yy	.	8ffn\yy	.	.	.	.	.	.	.	.	.	.
4ryy	.	.	8dd\yy	.	8dd\yy	.	.	.	.	.	.	.	.	.	.
.	.	.	8b\Jyy	.	8b\Jyy	.	.	.	.	.	.	.	.	.	.
=105	=105	=105	=105	=105	=105	=105	=105	=105	=105	=105	=105	=105	=105	=105	=105
!	!	!	!	!LO:DY:b:t=p.	!	!	!	!	!	!	!	!	!	!	!
4C/yy	.	.	8ryy	p	8ryy	.	1r	.	2.cc\	Et	.	1ryyyy	1ryyyy	1ryy	1ryy
.	.	.	8g/Lyy	.	8cc/L 8e/yy	.	.	.	.	.	.	.	.	.	.
4ryy	.	.	8g/yy	.	8cc/ 8e/yy	.	.	.	.	.	.	.	.	.	.
.	.	.	8g/Jyy	.	8cc/J 8e/yy	.	.	.	.	.	.	.	.	.	.
4C/yy	.	.	8ryy	.	8ryy	.	.	.	.	.	.	.	.	.	.
.	.	.	8g/Lyy	.	8cc/L 8e/yy	.	.	.	.	.	.	.	.	.	.
4ryy	.	.	8g/yy	.	8cc/ 8e/yy	.	.	.	8dd\L	spi-	.	.	.	.	.
.	.	.	8g/Jyy	.	8cc/J 8e/yy	.	.	.	8ee\J	.	.	.	.	.	.
!	!	!	!	!	!LO:LB:g=original	!	!	!	!LO:LB:g=original	!	!	!	!	!	!
=106	=106	=106	=106	=106	=106	=106	=106	=106	=106	=106	=106	=106	=106	=106	=106
4D/yy	.	.	8ryy	.	8ryy	.	1r	.	8ee\L	-ri-	.	1ryyyy	1ryyyy	1ryy	1ryy
.	.	.	8g/Lyy	.	8b/L 8f/yy	.	.	.	8dd\J	.	.	.	.	.	.
4ryy	.	.	8g/yy	.	8b/ 8f/yy	.	.	.	2dd\	-tu-	.	.	.	.	.
.	.	.	8g/Jyy	.	8b/J 8f/yy	.	.	.	.	.	.	.	.	.	.
4D/yy	.	.	8ryy	.	8ryy	.	.	.	.	.	.	.	.	.	.
.	.	.	8g/Lyy	.	8b/L 8f/yy	.	.	.	.	.	.	.	.	.	.
4ryy	.	.	8g/yy	.	8b/ 8f/yy	.	.	.	8ee\L	-i	.	.	.	.	.
.	.	.	8g/Jyy	.	8b/J 8f/yy	.	.	.	8ffn\J	.	.	.	.	.	.
=107	=107	=107	=107	=107	=107	=107	=107	=107	=107	=107	=107	=107	=107	=107	=107
4GG/yy	.	.	8ryy	.	8ryy	.	1r	.	2.gg\	San-	.	1ryyyy	1ryyyy	1ryy	1ryy
.	.	.	8g/Lyy	.	8dd/L 8f/yy	.	.	.	.	.	.	.	.	.	.
4ryy	.	.	8g/yy	.	8dd/ 8f/yy	.	.	.	.	.	.	.	.	.	.
.	.	.	8g/Jyy	.	8dd/J 8f/yy	.	.	.	.	.	.	.	.	.	.
4BB/yy	.	.	8ryy	.	8ryy	.	.	.	.	.	.	.	.	.	.
.	.	.	8g/Lyy	.	8b/L 8f/yy	.	.	.	.	.	.	.	.	.	.
4ryy	.	.	8g/yy	.	8b/ 8f/yy	.	.	.	16gg\LL	.	.	.	.	.	.
.	.	.	.	.	.	.	.	.	16ff\	.	.	.	.	.	.
.	.	.	8g/Jyy	.	8b/J 8f/yy	.	.	.	16ee\	.	.	.	.	.	.
.	.	.	.	.	.	.	.	.	16ff\JJ	.	.	.	.	.	.
=108	=108	=108	=108	=108	=108	=108	=108	=108	=108	=108	=108	=108	=108	=108	=108
4C/yy	.	.	8e/Lyy	.	8cc/Lyy	.	1r	.	4ee\	-cto	.	1ryyyy	1ryyyy	1ryy	1ryy
.	.	.	8e/yy	.	8g/yy	.	.	.	.	.	.	.	.	.	.
4ryy	.	.	8d/yy	.	8f/yy	.	.	.	4r	.	.	.	.	.	.
.	.	.	8c/Jyy	.	8e/Jyy	.	.	.	.	.	.	.	.	.	.
4E\yy	.	.	4c/yy	.	4e/yy	.	.	.	8gg\L	et	.	.	.	.	.
.	.	.	.	.	.	.	.	.	8ee\J	.	.	.	.	.	.
4ryy	.	.	4ryy	.	4ryy	.	.	.	8dd\L	spi-	.	.	.	.	.
.	.	.	.	.	.	.	.	.	8cc#X\J	.	.	.	.	.	.
=109	=109	=109	=109	=109	=109	=109	=109	=109	=109	=109	=109	=109	=109	=109	=109
4F\yy	.	.	8ryy	.	8ryy	.	1r	.	(4.dd\	-ri-	.	1ryyyy	1ryyyy	1ryy	1ryy
.	.	.	8a/Lyy	.	8dd\Lyy	.	.	.	.	.	.	.	.	.	.
4ryy	.	.	8a/yy	.	8dd\yy	.	.	.	.	.	.	.	.	.	.
.	.	.	8a/Jyy	.	8dd\Jyy	.	.	.	8ee\)	.	.	.	.	.	.
4F\yy	.	.	8ryy	.	8ryy	.	.	.	8ff\L	-tu-	.	.	.	.	.
.	.	.	8a/yy	.	8dd\yy	.	.	.	8ee\J	.	.	.	.	.	.
4F#X\yy	.	.	8ryy	.	8ryy	.	.	.	8dd\L	-i	.	.	.	.	.
.	.	.	8a/yy	.	8cc\yy	.	.	.	8ccn\J	.	.	.	.	.	.
=110	=110	=110	=110	=110	=110	=110	=110	=110	=110	=110	=110	=110	=110	=110	=110
4G\yy	.	.	8ryy	.	8ryy	.	1r	.	2cc\	San-	.	1ryyyy	1ryyyy	1ryy	1ryy
.	.	.	8e/Lyy	.	8cc\Lyy	.	.	.	.	.	.	.	.	.	.
4GG/yy	.	.	8e/yy	.	8cc\yy	.	.	.	.	.	.	.	.	.	.
.	.	.	8e/Jyy	.	8cc\Jyy	.	.	.	.	.	.	.	.	.	.
8G\Lyy	.	.	8d/Lyy	.	8b\Lyy	.	.	.	4b\	-cto	.	.	.	.	.
8Fn\yy	.	.	8f/yy	.	8a\yy	.	.	.	.	.	.	.	.	.	.
8E\yy	.	.	8e/yy	.	8g\yy	.	.	.	4r	.	.	.	.	.	.
8D\Jyy	.	.	8d/Jyy	.	8f\Jyy	.	.	.	.	.	.	.	.	.	.
=111	=111	=111	=111	=111	=111	=111	=111	=111	=111	=111	=111	=111	=111	=111	=111
!	!	!	!	!	!	!LO:DY:a:t=for	!	!	!	!	!	!	!	!	!
!	!	!	!	!LO:DY:a:t=for	!	!	!	!	!	!	!	!	!	!	!
!	!	!LO:DY:a:t=for.	!	!	!	!	!	!	!	!	!	!	!	!	!
8CC/Lyy	.	f	4cc/yy 4e/yy 4G/yy	f	4cc/yy 4e/yy 4G/yy	f	4c\	Si-	4cc\	Si-	.	1ryyyy	1ryyyy	4cc\yy	4ee\yy
8C/yy	.	.	.	.	.	.	.	.	.	.	.	.	.	.	.
8C/yy	.	.	4cc/yy 4e/yy 4G/yy	.	4cc/yy 4e/yy 4G/yy	.	4c\	-cut	4cc\	-cut	.	.	.	4cc\yy	4ee\yy
8C/Jyy	.	.	.	.	.	.	.	.	.	.	.	.	.	.	.
*tremolo	*	*	*	*	*	*	*	*	*	*	*	*	*	*	*
8C/Lyy	.	.	4cc/yy 4e/yy 4G/yy	.	4cc/yy 4e/yy 4G/yy	.	2c\	e-	2cc\	e-	.	.	.	4cc\yy	4ee\yy
8C/yy	.	.	.	.	.	.	.	.	.	.	.	.	.	.	.
.	.	.	.	.	16qqdd/yy	.	.	.	.	.	.	.	.	.	.
8C/yy	.	.	16e/LLyy	.	16cc\LLyy	.	.	.	.	.	.	.	.	8cc\Lyy	8ee\Lyy
.	.	.	16d/yy	.	16b\yy	.	.	.	.	.	.	.	.	.	.
8C/Jyy	.	.	16e/yy	.	16cc\yy	.	.	.	.	.	.	.	.	8dd\Jyy	8ff\Jyy
.	.	.	16f/JJyy	.	16dd\JJyy	.	.	.	.	.	.	.	.	.	.
!LO:LB:g=original	!	!	!LO:LB:g=original	!	!	!	!	!	!	!	!	!	!	!	!
=112	=112	=112	=112	=112	=112	=112	=112	=112	=112	=112	=112	=112	=112	=112	=112
8C\Lyy	.	.	8g/Lyy	.	8ee\Lyy	.	4c\	-rat	4cc\	-rat	.	1ryyyy	1ryyyy	4ee\yy	4gg\yy
8C\yy	.	.	8e/yy	.	8cc\yy	.	.	.	.	.	.	.	.	.	.
8C\yy	.	.	8e/yy	.	8g\yy	.	4r	.	4r	.	.	.	.	4ryy	4ryy
8C\Jyy	.	.	8c/Jyy	.	8e\Jyy	.	.	.	.	.	.	.	.	.	.
!	!	!	!	!	!LO:LB:g=original	!	!	!	!	!	!	!	!	!	!
8E\Lyy	.	.	8G/Lyy	.	8c/Lyy	.	2r	.	2r	.	.	.	.	2ryy	2ryy
8E\yy	.	.	8c/yy	.	8e/yy	.	.	.	.	.	.	.	.	.	.
8E\yy	.	.	8e/yy	.	8g/yy	.	.	.	.	.	.	.	.	.	.
8E\Jyy	.	.	8g/Jyy	.	8cc/Jyy	.	.	.	.	.	.	.	.	.	.
=113	=113	=113	=113	=113	=113	=113	=113	=113	=113	=113	=113	=113	=113	=113	=113
*	*	*	*tremolo	*	*	*	*	*	*	*	*	*	*	*	*
8F\Lyy	.	.	16a/yy 16f/LLyy	.	4a/yy	.	4F\	in	4a\	in	.	1ryyyy	1ryyyy	4f/yy	4a/yy
.	.	.	16a/yy 16f/yy	.	.	.	.	.	.	.	.	.	.	.	.
8F\yy	.	.	16a/yy 16f/yy	.	.	.	.	.	.	.	.	.	.	.	.
.	.	.	16a/yy 16f/yy	.	.	.	.	.	.	.	.	.	.	.	.
8F\yy	.	.	16a/yy 16f/yy	.	4ff/yy 4a/yy	.	4A\	prin-	4ff\	prin-	.	.	.	4a/yy	4ff\yy
.	.	.	16a/yy 16f/yy	.	.	.	.	.	.	.	.	.	.	.	.
8F\Jyy	.	.	16a/yy 16f/yy	.	.	.	.	.	.	.	.	.	.	.	.
.	.	.	16a/yy 16f/JJyy	.	.	.	.	.	.	.	.	.	.	.	.
8G\Lyy	.	.	16b/yy 16d/LLyy	.	4b/yy 4d/yy	.	4G\	-ci-	4dd\	-ci-	.	.	.	4g/yy	4b/yy
.	.	.	16b/yy 16d/yy	.	.	.	.	.	.	.	.	.	.	.	.
8G\yy	.	.	16b/yy 16d/yy	.	.	.	.	.	.	.	.	.	.	.	.
.	.	.	16b/yy 16d/yy	.	.	.	.	.	.	.	.	.	.	.	.
8G\yy	.	.	16b/yy 16d/yy	.	4gg/yy 4b/yy	.	4G\	-pi-	4b\	-pi-	.	.	.	4b/yy	4gg\yy
.	.	.	16b/yy 16d/yy	.	.	.	.	.	.	.	.	.	.	.	.
8G\Jyy	.	.	16b/yy 16d/yy	.	.	.	.	.	.	.	.	.	.	.	.
.	.	.	16b/yy 16d/JJyy	.	.	.	.	.	.	.	.	.	.	.	.
*Xtremolo	*	*	*Xtremolo	*	*	*	*	*	*	*	*	*	*	*	*
!	!	!	!	!	!	!	!	!	!LO:LB:g=original	!	!	!	!	!	!
=114	=114	=114	=114	=114	=114	=114	=114	=114	=114	=114	=114	=114	=114	=114	=114
4c\yy	.	.	8cc/L 8e/ 8G/yy	.	8ee\Lyy	.	4c\	-o	4ee\	-o	.	1ryyyy	1ryyyy	4cc\yy	4ee\yy
.	.	.	8g/yy	.	8cc\yy	.	.	.	.	.	.	.	.	.	.
4ryy	.	.	8e/yy	.	8g\yy	.	4r	.	4r	.	.	.	.	4ryy	4ryy
.	.	.	8c/Jyy	.	8e\Jyy	.	.	.	.	.	.	.	.	.	.
2ryy	.	.	8G/Lyy	.	8c/Lyy	.	4r	.	4r	.	.	.	.	2ryy	2ryy
.	.	.	8c/yy	.	8e/yy	.	.	.	.	.	.	.	.	.	.
.	.	.	8e/yy	.	8g/yy	.	4E\	et	4cc\	et	.	.	.	.	.
.	.	.	8g/Jyy	.	8cc/Jyy	.	.	.	.	.	.	.	.	.	.
!	!	!	!	!	!	!	!LO:LB:g=original	!	!	!	!	!	!	!	!
=115	=115	=115	=115	=115	=115	=115	=115	=115	=115	=115	=115	=115	=115	=115	=115
*tremolo	*	*	*tremolo	*	*	*	*	*	*	*	*	*	*	*	*
8F\Lyy	.	.	16a/yy 16f/LLyy	.	4a/yy	.	4F\	nunc	4a\	nunc	.	1ryyyy	1ryyyy	4f/yy	4a/yy
.	.	.	16a/yy 16f/yy	.	.	.	.	.	.	.	.	.	.	.	.
8F\yy	.	.	16a/yy 16f/yy	.	.	.	.	.	.	.	.	.	.	.	.
.	.	.	16a/yy 16f/yy	.	.	.	.	.	.	.	.	.	.	.	.
8F\yy	.	.	16a/yy 16f/yy	.	4ff/yy 4a/yy	.	4F\	et	4ff\	et	.	.	.	4a/yy	4ff\yy
.	.	.	16a/yy 16f/yy	.	.	.	.	.	.	.	.	.	.	.	.
8F\Jyy	.	.	16a/yy 16f/yy	.	.	.	.	.	.	.	.	.	.	.	.
.	.	.	16a/yy 16f/JJyy	.	.	.	.	.	.	.	.	.	.	.	.
8G\Lyy	.	.	16b/yy 16d/LLyy	.	4b/yy 4d/yy	.	2G\	sem-	(4dd\	sem-	.	.	.	4g/yy	4b/yy
.	.	.	16b/yy 16d/yy	.	.	.	.	.	.	.	.	.	.	.	.
8G\yy	.	.	16b/yy 16d/yy	.	.	.	.	.	.	.	.	.	.	.	.
.	.	.	16b/yy 16d/yy	.	.	.	.	.	.	.	.	.	.	.	.
8G\yy	.	.	16b/yy 16d/yy	.	4gg/yy 4b/yy	.	.	.	4b\)	.	.	.	.	4b/yy	4gg\yy
.	.	.	16b/yy 16d/yy	.	.	.	.	.	.	.	.	.	.	.	.
8G\Jyy	.	.	16b/yy 16d/yy	.	.	.	.	.	.	.	.	.	.	.	.
.	.	.	16b/yy 16d/JJyy	.	.	.	.	.	.	.	.	.	.	.	.
*Xtremolo	*	*	*Xtremolo	*	*	*	*	*	*	*	*	*	*	*	*
!	!	!	!	!	!	!	!	!	!	!	!	!	!	!LO:LB:g=original	!
=116	=116	=116	=116	=116	=116	=116	=116	=116	=116	=116	=116	=116	=116	=116	=116
4C/yy	.	.	4cc/yy 4e/yy 4G/yy	.	4ee/yy 4cc/yy	.	4c\	-per	4cc\	-per	.	1ryyyy	1ryyyy	4cc\yy	4ee\yy
4C/yy	.	.	4cc/yy 4e/yy 4G/yy	.	4cc/yy 4e/yy 4G/yy	.	4r	.	4r	.	.	.	.	4cc\yy	4ee\yy
4C/yy	.	.	4cc/yy 4e/yy 4G/yy	.	4cc/yy 4e/yy 4G/yy	.	2r	.	2r	.	.	.	.	4cc\yy	4ee\yy
4ryy	.	.	4ryy	.	4ryy	.	.	.	.	.	.	.	.	4ryy	4ryy
!	!	!	!	!	!	!	!	!	!	!	!	!	!	!	!LO:LB:g=original
=117	=117	=117	=117	=117	=117	=117	=117	=117	=117	=117	=117	=117	=117	=117	=117
*tremolo	*	*	*	*	*tremolo	*	*	*	*	*	*	*	*	*	*
8C\Lyy	5_ 3_	.	16c/LLyy	.	16ccc\LLyy	.	2c\	et	2ee\	et	.	1ryyyy	1ryyyy	1cc\yy	1ee\yy
.	.	.	16e/yy	.	16ccc\yy	.	.	.	.	.	.	.	.	.	.
8C\yy	x x	.	16g/yy	.	16ccc\yy	.	.	.	.	.	.	.	.	.	.
.	.	.	16e/JJyy	.	16ccc\JJyy	.	.	.	.	.	.	.	.	.	.
*	*	*	*rep	*	*	*	*	*	*	*	*	*	*	*	*
8C\yy	x x	.	16c/LLyy	.	16gg\LLyy	.	.	.	.	.	.	.	.	.	.
.	.	.	16e/yy	.	16gg\yy	.	.	.	.	.	.	.	.	.	.
8C\Jyy	x x	.	16g/yy	.	16gg\yy	.	.	.	.	.	.	.	.	.	.
.	.	.	16e/JJyy	.	16gg\JJyy	.	.	.	.	.	.	.	.	.	.
*	*	*	*Xrep	*	*	*	*	*	*	*	*	*	*	*	*
*	*	*	*rep	*	*	*	*	*	*	*	*	*	*	*	*
8C\Lyy	x x	.	16c/LLyy	.	16ee\LLyy	.	2c\	in	2ee\	in	.	.	.	.	.
.	.	.	16e/yy	.	16ee\yy	.	.	.	.	.	.	.	.	.	.
8C\yy	x x	.	16g/yy	.	16ee\yy	.	.	.	.	.	.	.	.	.	.
.	.	.	16e/JJyy	.	16ee\JJyy	.	.	.	.	.	.	.	.	.	.
*	*	*	*Xrep	*	*	*	*	*	*	*	*	*	*	*	*
*	*	*	*rep	*	*	*	*	*	*	*	*	*	*	*	*
8C\yy	x x	.	16c/LLyy	.	16cc\LLyy	.	.	.	.	.	.	.	.	.	.
.	.	.	16e/yy	.	16cc\yy	.	.	.	.	.	.	.	.	.	.
8C\Jyy	x x	.	16g/yy	.	16cc\yy	.	.	.	.	.	.	.	.	.	.
.	.	.	16e/JJyy	.	16cc\JJyy	.	.	.	.	.	.	.	.	.	.
*	*	*	*Xrep	*	*Xtremolo	*	*	*	*	*	*	*	*	*	*
=118	=118	=118	=118	=118	=118	=118	=118	=118	=118	=118	=118	=118	=118	=118	=118
8D\Lyy	4 3	.	16d/LLyy	.	8cc\Lyy	.	8c\	et	8ee\	et	.	1ryyyy	1ryyyy	8cc\Lyy	8ee\Lyy
.	.	.	16f/yy	.	.	.	.	.	.	.	.	.	.	.	.
8D\yy	.	.	16g/yy	.	8b\yy	.	8d\	in	8ff\	in	.	.	.	8dd\yy	8ff\yy
.	.	.	16f/JJyy	.	.	.	.	.	.	.	.	.	.	.	.
*	*	*	*rep	*	*	*	*	*	*	*	*	*	*	*	*
8D\yy	.	.	16d/LLyy	.	8b\yy	.	8d\	se-	8ff\	se-	.	.	.	8dd\yy	8ff\yy
.	.	.	16f/yy	.	.	.	.	.	.	.	.	.	.	.	.
8D\Jyy	.	.	16g/yy	.	8b\Jyy	.	8d\	-cu-	8ff\	-cu-	.	.	.	8dd\Jyy	8ff\Jyy
.	.	.	16f/JJyy	.	.	.	.	.	.	.	.	.	.	.	.
*	*	*	*Xrep	*	*	*	*	*	*	*	*	*	*	*	*
*	*	*	*rep	*	*	*	*	*	*	*	*	*	*	*	*
8GG/Lyy	7 3	.	16d/LLyy	.	16b\LLyy	.	4d\	-la	4ff\	-la	.	.	.	4dd\yy	4ff\yy
.	.	.	16f/yy	.	16gg\yy	.	.	.	.	.	.	.	.	.	.
8GG/yy	.	.	16g/yy	.	16ff#X\yy	.	.	.	.	.	.	.	.	.	.
.	.	.	16f/JJyy	.	16gg\JJyy	.	.	.	.	.	.	.	.	.	.
*	*	*	*Xrep	*	*	*	*	*	*	*	*	*	*	*	*
*	*	*	*rep	*	*	*	*	*	*	*	*	*	*	*	*
8GG/yy	.	.	16d/LLyy	.	16aa\LLyy	.	4r	.	4r	.	.	.	.	4ryy	4ryy
.	.	.	16f/yy	.	16gg\yy	.	.	.	.	.	.	.	.	.	.
8GG/Jyy	.	.	16g/yy	.	16ff#\yy	.	.	.	.	.	.	.	.	.	.
.	.	.	16f/JJyy	.	16gg\JJyy	.	.	.	.	.	.	.	.	.	.
*	*	*	*Xrep	*	*	*	*	*	*	*	*	*	*	*	*
=119	=119	=119	=119	=119	=119	=119	=119	=119	=119	=119	=119	=119	=119	=119	=119
*	*	*	*	*	*tremolo	*	*	*	*	*	*	*	*	*	*
!	!	!	!LO:TX:t=P:problem=2 takty zapisane powtórką	!	!	!	!	!	!	!	!	!	!	!	!
8C/Lyy	5 3	.	16c/LLyy	.	16ccc\LLyy	.	4c\	se-	4ee\	se-	.	1ryyyy	1ryyyy	1cc\yy	1ee\yy
.	.	.	16e/yy	.	16ccc\yy	.	.	.	.	.	.	.	.	.	.
8C/yy	.	.	16g/yy	.	16ccc\yy	.	.	.	.	.	.	.	.	.	.
.	.	.	16e/JJyy	.	16ccc\JJyy	.	.	.	.	.	.	.	.	.	.
*	*	*	*rep	*	*	*	*	*	*	*	*	*	*	*	*
8C/yy	.	.	16c/LLyy	.	16gg\LLyy	.	4c\	-cu-	4ee\	-cu-	.	.	.	.	.
.	.	.	16e/yy	.	16gg\yy	.	.	.	.	.	.	.	.	.	.
8C/Jyy	.	.	16g/yy	.	16gg\yy	.	.	.	.	.	.	.	.	.	.
.	.	.	16e/JJyy	.	16gg\JJyy	.	.	.	.	.	.	.	.	.	.
*	*	*	*Xrep	*	*	*	*	*	*	*	*	*	*	*	*
*	*	*	*rep	*	*	*	*	*	*	*	*	*	*	*	*
8C/Lyy	7 3	.	16c/LLyy	.	16ee\LLyy	.	4c\	-lo-	4ee\	-lo-	.	.	.	.	.
.	.	.	16e/yy	.	16ee\yy	.	.	.	.	.	.	.	.	.	.
8C/yy	.	.	16g/yy	.	16ee\yy	.	.	.	.	.	.	.	.	.	.
.	.	.	16e/JJyy	.	16ee\JJyy	.	.	.	.	.	.	.	.	.	.
*	*	*	*Xrep	*	*	*	*	*	*	*	*	*	*	*	*
*	*	*	*rep	*	*	*	*	*	*	*	*	*	*	*	*
8C/yy	.	.	16c/LLyy	.	16cc\LLyy	.	4c\	-rum	4ee\	-ru(m)	.	.	.	.	.
.	.	.	16e/yy	.	16cc\yy	.	.	.	.	.	.	.	.	.	.
8C/Jyy	.	.	16g/yy	.	16cc\yy	.	.	.	.	.	.	.	.	.	.
.	.	.	16e/JJyy	.	16cc\JJyy	.	.	.	.	.	.	.	.	.	.
*	*	*	*Xrep	*	*Xtremolo	*	*	*	*	*	*	*	*	*	*
!	!	!	!	!	!LO:LB:g=original	!	!	!	!	!	!	!	!	!	!
=120	=120	=120	=120	=120	=120	=120	=120	=120	=120	=120	=120	=120	=120	=120	=120
8D\Lyy	4 3	.	16d/LLyy	.	8cc\Lyy	.	8c\	et	8ee\	et	.	1ryyyy	1ryyyy	8cc\Lyy	8ee\Lyy
.	.	.	16f/yy	.	.	.	.	.	.	.	.	.	.	.	.
8D\yy	.	.	16g/yy	.	8b\yy	.	8d\	in	8ff\	in	.	.	.	8dd\yy	8ff\yy
.	.	.	16f/JJyy	.	.	.	.	.	.	.	.	.	.	.	.
*	*	*	*rep	*	*	*	*	*	*	*	*	*	*	*	*
8D\yy	.	.	16d/LLyy	.	8b\yy	.	8d\	se-	8ff\	se-	.	.	.	8dd\yy	8ff\yy
.	.	.	16f/yy	.	.	.	.	.	.	.	.	.	.	.	.
8D\Jyy	.	.	16g/yy	.	8b\Jyy	.	8d\	-cu-	8ff\	-cu-	.	.	.	8dd\Jyy	8ff\Jyy
.	.	.	16f/JJyy	.	.	.	.	.	.	.	.	.	.	.	.
*	*	*	*Xrep	*	*	*	*	*	*	*	*	*	*	*	*
*	*	*	*rep	*	*	*	*	*	*	*	*	*	*	*	*
8GG/Lyy	7 3	.	16d/LLyy	.	16b\LLyy	.	4d\	-la	4ff\	-la	.	.	.	4dd\yy	4ff\yy
.	.	.	16f/yy	.	16gg\yy	.	.	.	.	.	.	.	.	.	.
8GG/yy	.	.	16g/yy	.	16ff#X\yy	.	.	.	.	.	.	.	.	.	.
.	.	.	16f/JJyy	.	16gg\JJyy	.	.	.	.	.	.	.	.	.	.
*	*	*	*Xrep	*	*	*	*	*	*	*	*	*	*	*	*
*	*	*	*rep	*	*	*	*	*	*	*	*	*	*	*	*
8GG/yy	.	.	16d/LLyy	.	16aa\LLyy	.	4r	.	4r	.	.	.	.	4ryy	4ryy
.	.	.	16f/yy	.	16gg\yy	.	.	.	.	.	.	.	.	.	.
8GG/Jyy	.	.	16g/yy	.	16ff#X\yy	.	.	.	.	.	.	.	.	.	.
.	.	.	16f/JJyy	.	16gg\JJyy	.	.	.	.	.	.	.	.	.	.
*	*	*	*Xrep	*	*	*	*	*	*	*	*	*	*	*	*
=121	=121	=121	=121	=121	=121	=121	=121	=121	=121	=121	=121	=121	=121	=121	=121
*	*	*	*tremolo	*	*	*	*	*	*	*	*	*	*	*	*
8C\Lyy	.	.	16cc/yy 16e/LLyy	.	8ee\Lyy	.	2c\	Se-	2ee\	se-	.	1ryyyy	1ryyyy	2cc\yy	2ee\yy
.	.	.	16cc/yy 16e/yy	.	.	.	.	.	.	.	.	.	.	.	.
8C\yy	.	.	16cc/yy 16e/yy	.	8cc\yy	.	.	.	.	.	.	.	.	.	.
.	.	.	16cc/yy 16e/yy	.	.	.	.	.	.	.	.	.	.	.	.
8C\yy	.	.	16cc/yy 16e/yy	.	8b\yy	.	.	.	.	.	.	.	.	.	.
.	.	.	16cc/yy 16e/yy	.	.	.	.	.	.	.	.	.	.	.	.
8C\Jyy	.	.	16cc/yy 16e/yy	.	8cc\Jyy	.	.	.	.	.	.	.	.	.	.
.	.	.	16cc/yy 16e/JJyy	.	.	.	.	.	.	.	.	.	.	.	.
8D\Lyy	.	.	16b/yy 16f/LLyy	.	8ff\Lyy	.	2B\	-cu-	2ff\	-cu-	.	.	.	2cc\yy	2ff\yy
.	.	.	16b/yy 16f/yy	.	.	.	.	.	.	.	.	.	.	.	.
8D\yy	.	.	16b/yy 16f/yy	.	8dd\yy	.	.	.	.	.	.	.	.	.	.
.	.	.	16b/yy 16f/yy	.	.	.	.	.	.	.	.	.	.	.	.
8D\yy	.	.	16b/yy 16f/yy	.	8b\yy	.	.	.	.	.	.	.	.	.	.
.	.	.	16b/yy 16f/yy	.	.	.	.	.	.	.	.	.	.	.	.
8D\Jyy	.	.	16b/yy 16f/yy	.	8g\Jyy	.	.	.	.	.	.	.	.	.	.
.	.	.	16b/yy 16f/JJyy	.	.	.	.	.	.	.	.	.	.	.	.
!	!	!	!	!	!	!	!	!	!LO:LB:g=original	!	!	!	!	!	!
!	!	!	!	!	!	!	!LO:LB:g=original	!	!	!	!	!	!	!	!
=122	=122	=122	=122	=122	=122	=122	=122	=122	=122	=122	=122	=122	=122	=122	=122
8E\Lyy	.	.	16cc/yy 16g/LLyy	.	4.gg\yy	.	2c\	-lo-	2gg\	-lo-	.	1ryyyy	1ryyyy	2cc\yy	2gg\yy
.	.	.	16cc/yy 16g/yy	.	.	.	.	.	.	.	.	.	.	.	.
8E\yy	.	.	16cc/yy 16g/yy	.	.	.	.	.	.	.	.	.	.	.	.
.	.	.	16cc/yy 16g/yy	.	.	.	.	.	.	.	.	.	.	.	.
8E\yy	.	.	16cc/yy 16g/yy	.	.	.	.	.	.	.	.	.	.	.	.
.	.	.	16cc/yy 16g/yy	.	.	.	.	.	.	.	.	.	.	.	.
8E\Jyy	.	.	16cc/yy 16g/yy	.	16ff#X\LLyy	.	.	.	.	.	.	.	.	.	.
.	.	.	16cc/yy 16g/JJyy	.	16gg\JJyy	.	.	.	.	.	.	.	.	.	.
*Xtremolo	*	*	*	*	*	*	*	*	*	*	*	*	*	*	*
8F\Lyy	.	.	16dd/yy 16f/LLyy	.	8aa\Lyy	.	2c\	-rum	2aa\	-rum	.	.	.	2cc\yy	2aa\yy
.	.	.	16dd/yy 16f/yy	.	.	.	.	.	.	.	.	.	.	.	.
8F\yy	.	.	16dd/yy 16f/yy	.	8ee\yy	.	.	.	.	.	.	.	.	.	.
.	.	.	16dd/yy 16f/yy	.	.	.	.	.	.	.	.	.	.	.	.
8A\yy	.	.	16dd/yy 16f/yy	.	8ff#\yy	.	.	.	.	.	.	.	.	.	.
.	.	.	16dd/yy 16f/yy	.	.	.	.	.	.	.	.	.	.	.	.
8A\Jyy	.	.	16dd/yy 16f/yy	.	8dd\Jyy	.	.	.	.	.	.	.	.	.	.
.	.	.	16dd/yy 16f/JJyy	.	.	.	.	.	.	.	.	.	.	.	.
!	!	!	!LO:LB:g=original	!	!	!	!	!	!	!	!	!	!	!	!
=123	=123	=123	=123	=123	=123	=123	=123	=123	=123	=123	=123	=123	=123	=123	=123
*tremolo	*	*	*	*	*	*	*	*	*	*	*	*	*	*	*
8G\Lyy	.	.	16cc/yy 16e/LLyy	.	2g/yy	.	(2c\	a-	(2ee\	a-	.	1ryyyy	1ryyyy	2cc\yy	2ee\yy
.	.	.	16cc/yy 16e/yy	.	.	.	.	.	.	.	.	.	.	.	.
8G\yy	.	.	16cc/yy 16e/yy	.	.	.	.	.	.	.	.	.	.	.	.
.	.	.	16cc/yy 16e/yy	.	.	.	.	.	.	.	.	.	.	.	.
8G\yy	.	.	16cc/yy 16e/yy	.	.	.	.	.	.	.	.	.	.	.	.
.	.	.	16cc/yy 16e/yy	.	.	.	.	.	.	.	.	.	.	.	.
8G\Jyy	.	.	16cc/yy 16e/yy	.	.	.	.	.	.	.	.	.	.	.	.
.	.	.	16cc/yy 16e/JJyy	.	.	.	.	.	.	.	.	.	.	.	.
8GG/Lyy	.	.	16b/yy 16d/LLyy	.	2dd\Tyy	.	2G\)	.	2dd\)	.	.	.	.	2b\yy	2dd\yy
.	.	.	16b/yy 16d/yy	.	.	.	.	.	.	.	.	.	.	.	.
8GG/yy	.	.	16b/yy 16d/yy	.	.	.	.	.	.	.	.	.	.	.	.
.	.	.	16b/yy 16d/yy	.	.	.	.	.	.	.	.	.	.	.	.
8GG/yy	.	.	16b/yy 16d/yy	.	.	.	.	.	.	.	.	.	.	.	.
.	.	.	16b/yy 16d/yy	.	.	.	.	.	.	.	.	.	.	.	.
8GG/Jyy	.	.	16b/yy 16d/yy	.	.	.	.	.	.	.	.	.	.	.	.
.	.	.	16b/yy 16d/JJyy	.	.	.	.	.	.	.	.	.	.	.	.
*Xtremolo	*	*	*Xtremolo	*	*	*	*	*	*	*	*	*	*	*	*
=124	=124	=124	=124	=124	=124	=124	=124	=124	=124	=124	=124	=124	=124	=124	=124
4C/yy	.	.	4cc/yy 4e/yy 4G/yy	.	4cc\yy	.	4C/	-men	4cc\	-men	.	1ryyyy	1ryyyy	4cc\yy	4cc\yy
!	!	!	!	!	!	!LO:DY:b:t=p.	!	!	!	!	!	!	!	!	!
!	!	!	!	!LO:DY:b:t=p.	!	!	!	!	!	!	!	!	!	!	!
4ryy	.	.	4f/yy	p	4a/yy	p	4r	.	4r	.	.	.	.	4ff\yy	4aa\yy
2ryy	.	.	4e/yy	.	4g/yy	.	2r	.	2r	.	.	.	.	4ee\yy	4gg\yy
.	.	.	4d#X/yy	.	4f#X/yy	.	.	.	.	.	.	.	.	4dd#X\yy	4ff#X\yy
=125	=125	=125	=125	=125	=125	=125	=125	=125	=125	=125	=125	=125	=125	=125	=125
4ryy	.	.	4e/yy	.	4g/yy	.	4r	.	4r	.	.	1ryyyy	1ryyyy	4ee\yy	4gg\yy
*	*	*	*tremolo	*	*tremolo	*	*	*	*	*	*	*	*	*	*
!	!	!	!	!	!	!LO:DY:b:t=for	!	!	!	!	!	!	!	!	!
!	!	!	!	!LO:DY:b:t=for	!	!	!	!	!	!	!	!	!	!	!
4E\yy	6	.	16e/yy 16G/LLyy	f	16g/LLyy	f	(4E\	a-	(4cc\	a-	.	.	.	4e/yy	4g/yy
.	.	.	16e/yy 16G/yy	.	16g/yy	.	.	.	.	.	.	.	.	.	.
.	.	.	16e/yy 16G/yy	.	16g/yy	.	.	.	.	.	.	.	.	.	.
.	.	.	16e/yy 16G/JJyy	.	16g/JJyy	.	.	.	.	.	.	.	.	.	.
4F\yy	6	.	16f/yy 16G/LLyy	.	16a/LLyy	.	4F\	.	4dd\	.	.	.	.	4f/yy	4a/yy
.	.	.	16f/yy 16G/yy	.	16a/yy	.	.	.	.	.	.	.	.	.	.
.	.	.	16f/yy 16G/yy	.	16a/yy	.	.	.	.	.	.	.	.	.	.
.	.	.	16f/yy 16G/JJyy	.	16a/JJyy	.	.	.	.	.	.	.	.	.	.
4G\yy	3	.	16d/yy 16G/LLyy	.	16b/LLyy	.	4G\)	.	4b\)	.	.	.	.	4d/yy	4b/yy
.	.	.	16d/yy 16G/yy	.	16b/yy	.	.	.	.	.	.	.	.	.	.
.	.	.	16d/yy 16G/yy	.	16b/yy	.	.	.	.	.	.	.	.	.	.
.	.	.	16d/yy 16G/JJyy	.	16b/JJyy	.	.	.	.	.	.	.	.	.	.
*	*	*	*Xtremolo	*	*Xtremolo	*	*	*	*	*	*	*	*	*	*
!LO:LB:g=original	!	!	!	!	!	!	!	!	!	!	!	!	!	!	!
=126	=126	=126	=126	=126	=126	=126	=126	=126	=126	=126	=126	=126	=126	=126	=126
4C/yy	.	.	4e/yy 4G/yy	.	4cc\yy	.	4c\	-men	4cc\	-men	.	1ryyyy	1ryyyy	4e/yy	4cc\yy
!	!	!	!	!	!	!LO:DY:b:t=p.	!	!	!	!	!	!	!	!	!
!	!	!	!	!LO:DY:b:t=p.	!	!	!	!	!	!	!	!	!	!	!
4ryy	.	.	4f/yy	p	4a/yy	p	4r	.	4r	.	.	.	.	4ff\yy	4aa\yy
2ryy	.	.	4e/yy	.	4g/yy	.	2r	.	2r	.	.	.	.	4ee\yy	4gg\yy
.	.	.	4d#X/yy	.	4f#X/yy	.	.	.	.	.	.	.	.	4dd#X\yy	4ff#X\yy
=127	=127	=127	=127	=127	=127	=127	=127	=127	=127	=127	=127	=127	=127	=127	=127
4ryy	.	.	4e/yy	.	4g/yy	.	4r	.	4r	.	.	1ryyyy	1ryyyy	4ee\yy	4gg\yy
*	*	*	*tremolo	*	*tremolo	*	*	*	*	*	*	*	*	*	*
!	!	!	!	!	!	!LO:DY:b:t=for	!	!	!	!	!	!	!	!	!
!	!	!	!	!LO:DY:b:t=for	!	!	!	!	!	!	!	!	!	!	!
4E\yy	6	.	16e/yy 16G/LLyy	f	16g/LLyy	f	(4E\	a-	(4cc\	a-	.	.	.	4e/yy	4g/yy
.	.	.	16e/yy 16G/yy	.	16g/yy	.	.	.	.	.	.	.	.	.	.
.	.	.	16e/yy 16G/yy	.	16g/yy	.	.	.	.	.	.	.	.	.	.
.	.	.	16e/yy 16G/JJyy	.	16g/JJyy	.	.	.	.	.	.	.	.	.	.
4F\yy	6	.	16f/yy 16G/LLyy	.	16a/LLyy	.	4F\	.	4dd\	.	.	.	.	4f/yy	4a/yy
.	.	.	16f/yy 16G/yy	.	16a/yy	.	.	.	.	.	.	.	.	.	.
.	.	.	16f/yy 16G/yy	.	16a/yy	.	.	.	.	.	.	.	.	.	.
.	.	.	16f/yy 16G/JJyy	.	16a/JJyy	.	.	.	.	.	.	.	.	.	.
4G\yy	3	.	16d/yy 16G/LLyy	.	16b/LLyy	.	4G\)	.	4b\)	.	.	.	.	4d/yy	4b/yy
.	.	.	16d/yy 16G/yy	.	16b/yy	.	.	.	.	.	.	.	.	.	.
.	.	.	16d/yy 16G/yy	.	16b/yy	.	.	.	.	.	.	.	.	.	.
.	.	.	16d/yy 16G/JJyy	.	16b/JJyy	.	.	.	.	.	.	.	.	.	.
*	*	*	*	*	*Xtremolo	*	*	*	*	*	*	*	*	*	*
*	*	*	*Xtremolo	*	*	*	*	*	*	*	*	*	*	*	*
!	!	!	!	!	!LO:LB:g=original	!	!	!	!	!	!	!	!	!	!
=128	=128	=128	=128	=128	=128	=128	=128	=128	=128	=128	=128	=128	=128	=128	=128
4C/yy	.	.	4e/yy 4G/yy	.	4cc/yy 4e/yy 4G/yy	.	4c\	-men	4cc\	-men	.	1ryyyy	1ryyyy	4e/yy	4cc\yy
4ryy	.	.	4ryy	.	4ryy	.	4r	.	4r	.	.	.	.	4ryy	4ryy
4G\yy	.	.	4g/yy 4G/yy	.	4gg/yy 4b/yy 4d/yy 4G/yy	.	4G\	a-	4dd\	a-	.	.	.	4b\yy	4dd\yy
4ryy	.	.	4ryy	.	4ryy	.	4r	.	4r	.	.	.	.	4ryy	4ryy
=129	=129	=129	=129	=129	=129	=129	=129	=129	=129	=129	=129	=129	=129	=129	=129
4c\yy	.	.	2e/yy 2G/yy	.	2ccc\yy 2ee\yy	.	2c\	-men	2ee\	-men	.	1ryyyy	1ryyyy	2cc\yy	2ee\yy
4ryy	.	.	.	.	.	.	.	.	.	.	.	.	.	.	.
2ryy	.	.	2ryy	.	2ryy	.	2r	.	2r	.	.	.	.	2ryy	2ryy
==	==	==	==	==	==	==	==	==	==	==	==	==	==	==	==
*-	*-	*-	*-	*-	*-	*-	*-	*-	*-	*-	*-	*-	*-	*-	*-
!!!system-decoration: [(g1)][(g2)][(g3)][(g4)]s9
!!!RDF**kern: | = vertical stroke
!!!RDF**kern: > = above
!!!RDF**kern: < = below
!!!ENC: Mateusz Solarz
!!!END: 2021-12-03
!!!ENC: Kamil Watkowski
!!!END: 2021-12-16
